spatil47-DOT/demo-plotly-dash-robo/robotapp/robot_data.csv
datetimes,actual_q_0,actual_q_1,actual_q_2,actual_q_3,actual_q_4,actual_q_5,actual_qd_0,actual_qd_1,actual_qd_2,actual_qd_3,actual_qd_4,actual_qd_5,actual_current_0,actual_current_1,actual_current_2,actual_current_3,actual_current_4,actual_current_5,actual_TCP_force_0,actual_TCP_force_1,actual_TCP_force_2,actual_TCP_force_3,actual_TCP_force_4,actual_TCP_force_5,tcp_force_scalar,joint_temperatures_0,joint_temperatures_1,joint_temperatures_2,joint_temperatures_3,joint_temperatures_4,joint_temperatures_5,robot_mode,safety_mode,actual_robot_voltage,actual_robot_current,actual_joint_voltage_0,actual_joint_voltage_1,actual_joint_voltage_2,actual_joint_voltage_3,actual_joint_voltage_4,actual_joint_voltage_5
090320-16:51:32.764,-1.47883493105,-1.90152182202,-1.67002773285,-1.1740206045,1.56382131577,-1.50671512285,0.0099259223789,0.0826644897461,-0.114834651351,0.0264817327261,-0.000234941864619,0.00733655970544,0.0241179168224,4.96352434158,0.589480638504,0.302194297314,0.00352549692616,0.0752445310354,0.314217849624,0.340993348765,0.325422867149,-0.0631049199178,-0.00537587917736,0.0538787186559,0.566488626,31.3125,32.75,31.9375,36.0,38.9375,40.5625,7,1,47.8660011292,1.13801419735,47.6135978699,47.7855911255,47.7712593079,47.6709289551,47.5992660522,47.5992660522
090320-16:51:32.772,-1.47875100771,-1.90076984982,-1.67101669312,-1.17382510126,1.56382131577,-1.50666648546,0.0105609772727,0.102169878781,-0.145878240466,0.0342910885811,-0.00028889864916,0.00837475433946,0.106460846961,5.12184143066,0.556771993637,0.370460033417,-0.0096041392535,0.113607503474,0.391995554514,-0.606576922112,0.582373324576,-0.0689294194936,-0.0121559710157,0.0631548059952,0.927768703059,31.3125,32.75,31.9375,36.0,38.9375,40.5,7,1,47.8794364929,1.14472699165,47.6565971375,47.7569236755,47.7569236755,47.6422653198,47.6422653198,47.6565971375
090320-16:51:32.780,-1.47870141665,-1.89987339596,-1.67226791382,-1.17347414911,1.56382083893,-1.50658256212,0.0112009076402,0.123538836837,-0.174469158053,0.0428512394428,-0.00124120444525,0.0095387827605,0.245761007071,5.11595869064,0.581294476986,0.447406709194,-0.00324822543189,0.145824626088,-0.185365717625,-1.30313590451,0.954733944525,-0.109835793014,0.00991879287961,0.0918996947212,1.62605059569,31.3125,32.75,31.9375,36.0,38.9375,40.5,7,1,47.8955574036,1.16711187363,47.6852607727,47.7999229431,47.7855911255,47.6709289551,47.7139282227,47.6565971375
090320-16:51:32.788,-1.47858125368,-1.89876188854,-1.67381954193,-1.17319567621,1.56377315521,-1.50649720827,0.0130464248359,0.146045953035,-0.200534313917,0.0492585524917,-0.000840817694552,0.0112734884024,0.217305213213,5.05211305618,0.482123494148,0.551908910275,-0.00625241175294,0.147574543953,-0.141446693791,-1.30446873417,0.495625384908,-0.0977703654143,0.00979846441304,0.11151267477,1.4026012861,31.3125,32.75,31.9375,36.0,38.9375,40.5,7,1,47.8543586731,1.14920926094,47.6565971375,47.7712593079,47.7569236755,47.6135978699,47.6279296875,47.6279296875
090320-16:51:32.795,-1.47847444216,-1.89754309277,-1.67556190491,-1.17285712183,1.563808918,-1.50643712679,0.0129090845585,0.164377942681,-0.228954195976,0.05699634552,-0.000576610967983,0.0108993444592,0.268317550421,5.30141687393,0.210789203644,0.702031731606,-0.00037350167986,0.178927451372,-0.0291389129522,0.00444919323143,-0.0899670115804,-0.0364883688252,0.0026269545966,0.136628426992,0.0946727771915,31.3125,32.75,31.9375,36.0,38.9375,40.5,7,1,47.8812255859,1.27677381039,47.6565971375,47.7999229431,47.7139282227,47.5849304199,47.6422653198,47.6279296875
090320-16:51:32.804,-1.47832948366,-1.89612116436,-1.67750072479,-1.1723216337,1.56378507614,-1.50638801256,0.0142382383347,0.184017956257,-0.261706978083,0.0750352218747,-0.000471203704365,0.0136402407661,0.217939063907,5.43518829346,0.689010977745,0.736533105373,-0.0099042179063,0.184496179223,0.181831569489,-0.687417708046,0.381796697625,-0.057369651237,0.00177721166569,0.145394511238,0.807077780214,31.3125,32.75,31.9375,36.0,38.9375,40.5,7,1,47.8337631226,1.21411216259,47.6709289551,47.7425918579,47.7282600403,47.5992660522,47.6135978699,47.5992660522
090320-16:51:32.812,-1.47822076479,-1.89453091244,-1.67968845367,-1.17160351694,1.56378507614,-1.50632697741,0.0153497252613,0.207667246461,-0.290406852961,0.100022286177,-0.000362651539035,0.0162414964288,0.215736806393,5.36221599579,0.472815454006,0.489822745323,0.0157652292401,0.194706425071,0.682883148915,-1.7086516403,0.671344189521,-0.0881833739268,0.00410441459607,0.161995572215,1.95870437887,31.3125,32.75,31.9375,36.0,38.9375,40.5,7,1,47.8463020325,1.24544036388,47.55626297,47.699596405,47.7139282227,47.55626297,47.5849304199,47.5992660522
090320-16:51:32.820,-1.47814923922,-1.89279427151,-1.68217563629,-1.17079146326,1.56377363205,-1.50627690951,0.0154369920492,0.230919227004,-0.317437052727,0.100158773363,-0.00029475876363,0.0199594330043,0.220803052187,5.23569965363,0.242889657617,0.439879655838,-0.0186699703336,0.196684658527,0.647468670279,-1.12841954137,0.259935083348,-0.0761843643858,-0.00155640757784,0.180656117167,1.32669234862,31.3125,32.75,31.9375,36.0,38.9375,40.5,7,1,47.8364448547,1.29019939899,47.5992660522,47.7425918579,47.7139282227,47.5705947876,47.6135978699,47.55626297
090320-16:51:32.828,-1.47801858584,-1.89081110577,-1.68487071991,-1.17004092157,1.56380939484,-1.50620395342,0.0154370246455,0.249160081148,-0.350554376841,0.0911648645997,-0.000274503836408,0.0237244069576,0.322310000658,5.45721054077,0.608317434788,0.636147975922,-0.00838326569647,0.197307378054,0.425248926382,-1.12264162157,0.330494890932,-0.0772821905944,-0.00340334233288,0.209619448334,1.24514566731,31.3125,32.75,31.9375,36.0,38.9375,40.5,7,1,47.831073761,1.31034314632,47.6135978699,47.699596405,47.7139282227,47.55626297,47.6135978699,47.5705947876
090320-16:51:32.836,-1.4778974692,-1.88874210934,-1.68781280518,-1.16921122492,1.56380939484,-1.50599700609,0.0156454835087,0.273229777813,-0.37410274148,0.0993997752666,-0.000245106319198,0.0278226528317,0.391926646233,5.34955120087,0.253793954849,0.698978841305,-0.0123336073011,0.178985729814,0.29410983939,-0.795200083158,0.689431523569,-0.0823106813459,-0.0119595952421,0.259848010677,1.09277609581,31.3125,32.75,31.9375,36.0,38.9375,40.5,7,1,47.8355522156,1.35957920551,47.5705947876,47.7425918579,47.7282600403,47.55626297,47.6279296875,47.6135978699
090320-16:51:32.844,-1.47780114809,-1.88637127499,-1.6910238266,-1.1683524412,1.56382131577,-1.50581676165,0.0157998371869,0.296392142773,-0.405958533287,0.120827153325,-0.000168768194271,0.0296010207385,0.53439450264,5.02321624756,0.592334568501,0.555377483368,-0.000397354597226,0.13279107213,-0.278302272385,-0.541176583552,0.727153999449,-0.0673395997476,-0.00523775577276,0.321568785203,0.948196808851,31.3125,32.75,31.9375,36.0,38.9375,40.5,7,1,47.8283882141,1.34167671204,47.5849304199,47.7139282227,47.699596405,47.5132637024,47.5275993347,47.5705947876
090320-16:51:32.852,-1.47763330141,-1.88387217144,-1.6944475174,-1.1673553747,1.56382131577,-1.50562411944,0.0169238895178,0.315067708492,-0.430578529835,0.128419578075,-0.000178478803718,0.0319496653974,0.635701477528,5.1639881134,0.384209305048,0.420655727386,0.00557428831235,0.121370650828,-0.683127462633,0.661524160532,0.191459982344,-0.00715554579118,-0.0189843442432,0.349244508425,0.970017664793,31.3125,32.75,31.9375,36.0,38.9375,40.5,7,1,47.8230133057,1.36852788925,47.5705947876,47.699596405,47.6709289551,47.5849304199,47.5705947876,47.5849304199
090320-16:51:32.860,-1.47751313845,-1.88119330029,-1.69802856445,-1.16636927546,1.56377363205,-1.50531083742,0.0178815666586,0.338117897511,-0.459281265736,0.114366896451,-0.000177299181814,0.0335213914514,0.734530568123,5.02096700668,0.388033092022,0.608659029007,-0.0133053185418,0.0665897428989,-0.243910487536,-1.48456212078,0.514098069005,-0.0647542155926,0.00122469065178,0.324436779046,1.5898785617,31.3125,32.75,31.9375,36.0,38.9375,40.5,7,1,47.8167457581,1.3461483717,47.6279296875,47.7282600403,47.6422653198,47.5992660522,47.5275993347,47.5419311523
090320-16:51:32.868,-1.47736817995,-1.87844099621,-1.70176410675,-1.16538746775,1.56374931335,-1.50504714647,0.0208204947412,0.357709288597,-0.482344597578,0.118238508701,-0.000166298064869,0.0332257077098,0.795617222786,5.09440135956,0.178156718612,0.761107623577,-0.00052496814169,0.0226839445531,-0.640070409369,-0.293468138265,0.542957940671,-0.0133659486371,-0.000405796865223,0.323016257786,0.889166464991,31.3125,32.75,31.9375,36.0,38.9375,40.5,7,1,47.8104782104,1.34391248226,47.6565971375,47.7139282227,47.6852607727,47.5132637024,47.55626297,47.5705947876
090320-16:51:32.876,-1.47718698183,-1.87548508267,-1.70569229126,-1.16429408014,1.56378555298,-1.50479633013,0.0250256042928,0.379527777433,-0.51188147068,0.149030521512,-0.000152233245899,0.0321091525257,0.670125186443,5.08568572998,0.25231552124,0.493538439274,0.024099195376,0.00498574925587,-0.875634874935,-0.735922842899,0.448722057125,-0.038980249731,0.000620684313955,0.317439354548,1.22868643252,31.3125,32.75,31.9375,36.0,38.9375,40.5,7,1,47.831073761,1.45581030846,47.5992660522,47.7282600403,47.699596405,47.5992660522,47.5849304199,47.5705947876
090320-16:51:32.884,-1.47696954409,-1.87237276653,-1.70982646942,-1.16314061106,1.56377363205,-1.50456935564,0.0275044068694,0.401089459658,-0.542228400707,0.136710062623,-0.00012511627574,0.0297646056861,0.663695573807,4.96024513245,0.319862544537,0.608323872089,0.0175515078008,0.0376730896533,-0.350540397864,-0.66257366134,0.630720793007,-0.021627640176,-0.0227901147739,0.314405760636,0.97963827302,31.3125,32.75,31.9375,36.0,38.9375,40.5,7,1,47.8033103943,1.42224097252,47.55626297,47.699596405,47.6422653198,47.5419311523,47.5419311523,47.5132637024
090320-16:51:32.892,-1.47671682039,-1.86906590084,-1.71423244476,-1.16195424021,1.56377363205,-1.50431806246,0.0300325211138,0.420378476381,-0.567311406136,0.142796948552,-0.000113932175736,0.0291702859104,0.629275560379,5.11336708069,0.0687662288547,0.684480428696,0.0447954759002,0.0831195339561,0.174901649558,-1.7272151831,1.03784913712,-0.072832178966,-0.0132469965389,0.314583789329,2.02262050498,31.3125,32.75,31.9375,36.0,38.9375,40.5,7,1,47.8167457581,1.51176440716,47.5705947876,47.6422653198,47.6565971375,47.5275993347,47.5849304199,47.5419311523
090320-16:51:32.900,-1.47648889223,-1.86564173321,-1.71893215179,-1.16074355066,1.56378555298,-1.50410205523,0.0322535075247,0.44037681818,-0.592274487019,0.169094532728,-5.83182190894e-05,0.0295075383037,0.571093559265,5.15631484985,-0.0365192778409,0.43324303627,0.0421756841242,0.137431547046,-0.179211315212,-1.35984890692,0.894967808389,-0.049498807413,-0.00679500049531,0.318832558699,1.63776467272,31.3125,32.75,31.9375,36.0,38.9375,40.5,7,1,47.8194351196,1.49386191368,47.5705947876,47.6852607727,47.6565971375,47.4559326172,47.5275993347,47.5419311523
090320-16:51:32.908,-1.47623712221,-1.86196484188,-1.72397136688,-1.15940030039,1.56382131577,-1.50388461748,0.0333485901356,0.464406311512,-0.623279631138,0.15366192162,-2.91300184472e-05,0.0325004942715,0.624363422394,5.02381134033,0.259199023247,0.508249104023,0.0365806333721,0.171501412988,-0.162225537712,-1.6810674308,1.03757671362,-0.0959909264599,-0.024127657269,0.325998578872,1.98213780264,31.3125,32.75,31.9375,36.0,38.9375,40.5,7,1,47.8042068481,1.48042571545,47.5705947876,47.6565971375,47.6709289551,47.5992660522,47.5275993347,47.5849304199
090320-16:51:32.916,-1.47593576113,-1.85814442257,-1.72914981842,-1.158291654,1.56380939484,-1.503596131,0.0349651388824,0.48112025857,-0.650134682655,0.148057177663,-2.30922178162e-05,0.0339524447918,0.604484558105,5.16136646271,0.247449323535,0.747909784317,0.0497163273394,0.227449029684,-0.383518397198,0.176262696909,0.549951670069,-0.0114203237502,-0.0340473429525,0.316885435473,0.693254454528,31.3125,32.75,31.9375,36.0,38.9375,40.5,7,1,47.779132843,1.52519011497,47.5849304199,47.6422653198,47.6135978699,47.4559326172,47.4846000671,47.5132637024
090320-16:51:32.924,-1.47567254702,-1.85417999844,-1.73446178436,-1.15691311777,1.56382131577,-1.50331956545,0.0364648140967,0.501730382442,-0.673932373524,0.175177395344,-2.75303659691e-06,0.0356609597802,0.676147580147,5.20335531235,0.21225091815,0.521414279938,0.0436965487897,0.258173465729,-0.126901678089,-0.535132369501,0.201236550044,0.000731261487271,-0.0103346886541,0.311882751172,0.585633706222,31.3125,32.75,31.9375,36.0,38.9375,40.5,7,1,47.7782325745,1.6012827158,47.5705947876,47.5849304199,47.5419311523,47.4989318848,47.4559326172,47.4846000671
090320-16:51:32.932,-1.47539598147,-1.85008682827,-1.73991680145,-1.15556796015,1.56377363205,-1.5030058066,0.0388136431575,0.521743178368,-0.699231564999,0.161455437541,-5.00350837151e-11,0.039017546922,0.616547226906,5.30796575546,0.0936596095562,0.752053380013,0.0970525145531,0.288302719593,-0.863703181766,-1.16906351905,0.291557982738,-0.0467279369748,0.0070260587113,0.319979565958,1.48246374494,31.3125,32.75,31.9375,36.0,38.9375,40.5,7,1,47.795249939,1.6326161623,47.5849304199,47.6565971375,47.5705947876,47.4846000671,47.4846000671,47.5132637024
090320-16:51:32.940,-1.47504693667,-1.84578480343,-1.74553775787,-1.15413220346,1.56377363205,-1.50272781054,0.0421833135188,0.541386425495,-0.722234606743,0.187757581472,-9.09362925469e-16,0.0440415591002,0.579010725021,5.41265487671,-0.106123968959,0.561016380787,0.0788649767637,0.279925793409,-0.299202140385,-1.61719713813,0.632597743473,-0.0756083024947,-0.011946127185,0.318782499585,1.76210907989,31.3125,32.75,31.9375,36.0,38.9375,40.5,7,1,47.7925682068,1.66618549824,47.4846000671,47.6279296875,47.5419311523,47.55626297,47.4559326172,47.4989318848
090320-16:51:32.948,-1.4747226874,-1.84140171627,-1.75137424469,-1.15264208735,1.56380987167,-1.50230580965,0.0437574163079,0.537220060825,-0.721292078495,0.177232980728,0.000702051911503,0.0488202609122,0.560325264931,5.01463127136,0.628921151161,0.473951518536,0.0931729823351,0.202372521162,-0.188637508111,-1.94275035351,0.379132656483,-0.112539636001,-0.0291199170608,0.316287098969,1.9883673244,31.3125,32.75,31.9375,36.0,38.9375,40.5,7,1,47.8077888489,1.57219028473,47.5849304199,47.6279296875,47.6279296875,47.4702682495,47.4846000671,47.4989318848
090320-16:51:32.956,-1.47435075441,-1.83706345181,-1.75726222992,-1.15145476282,1.56379795074,-1.5019086043,0.0431835241616,0.543550431728,-0.721951186657,0.157726928592,0.000780227244832,0.0514207966626,0.519263267517,4.60806941986,0.896931886673,0.806865096092,0.0796776115894,0.126420736313,0.0091200900846,0.302513188643,-0.0332406929278,0.05252188145,-0.00964729511934,0.30509003656,0.304470604513,31.3125,32.75,31.9375,36.0,38.9375,40.5,7,1,47.8015213013,1.50281047821,47.55626297,47.7139282227,47.6422653198,47.5275993347,47.5705947876,47.5705947876
090320-16:51:32.963,-1.47401506106,-1.83271040539,-1.76301288605,-1.15009053171,1.56383371353,-1.50157434145,0.0457800999284,0.545910835266,-0.718993484974,0.181462734938,0.000637466378976,0.0481621101499,0.393892139196,4.51812076569,0.76754373312,0.544179141521,0.0888273268938,0.11301626265,0.171271407985,1.10714046171,0.12110281079,0.0763372427725,-0.0408386009505,0.319692064221,1.12683618505,31.3125,32.75,31.9375,36.0,38.9375,40.5,7,1,47.8095779419,1.43119490147,47.6135978699,47.6852607727,47.6852607727,47.5705947876,47.55626297,47.5419311523
090320-16:51:32.972,-1.47364408175,-1.82835735897,-1.76864528656,-1.14865668238,1.56384515762,-1.5011695067,0.0450266189873,0.551097989082,-0.714477837086,0.162133201957,0.000526759948116,0.0427764467895,0.469656944275,4.15361356735,0.715470254421,0.727465033531,0.0964199602604,0.147018611431,-0.409960264591,-0.430795586156,0.83430275841,-0.00147580098889,-0.00325812404841,0.322305898361,1.02455519533,31.3125,32.75,31.9375,36.0,38.9375,40.5,7,1,47.8480911255,1.39090740681,47.6135978699,47.6565971375,47.6565971375,47.5275993347,47.5275993347,47.5275993347
090320-16:51:32.979,-1.47330934206,-1.82394184689,-1.77423000336,-1.14724190653,1.56383371353,-1.50084764162,0.0444737188518,0.554480731487,-0.710725307465,0.178159430623,0.000425357487984,0.039177916944,0.582336008549,4.05666446686,0.554833054543,0.52835047245,0.109329074621,0.206908285618,-0.16992049214,-1.12808085575,1.47286761084,-0.0046840686459,-0.00677035358725,0.314618872713,1.86300252008,31.3125,32.75,31.9375,36.0,38.9375,40.5,7,1,47.8006248474,1.41776394844,47.5849304199,47.6422653198,47.6565971375,47.55626297,47.4989318848,47.5419311523
090320-16:51:32.988,-1.47299939791,-1.81943096737,-1.77999591827,-1.14580805719,1.56383371353,-1.5004881064,0.0415370538831,0.553265333176,-0.711379408836,0.166687741876,0.00040202063974,0.0387098938227,0.690671384335,4.10576725006,0.693998873234,0.416527926922,0.105250895023,0.268243819475,0.0952522255526,-1.01167109784,1.69424303894,-0.0132384773486,-0.0230836930151,0.311091328865,1.97560392581,31.3125,32.75,31.9375,36.0,38.9375,40.5,7,1,47.8606300354,1.48266685009,47.5705947876,47.7282600403,47.699596405,47.5705947876,47.5849304199,47.5849304199
090320-16:51:32.995,-1.47263986269,-1.81499781231,-1.78580188751,-1.14469893396,1.56380987167,-1.50015145937,0.0412798598409,0.551579713821,-0.712129414082,0.145392671227,0.000474312953884,0.0412186570466,0.797578692436,4.07706737518,0.792303919792,0.727742314339,0.127107381821,0.292646497488,-0.524993043636,0.132180568651,1.32397901151,0.0118519142067,-0.00357583759518,0.314686319466,1.43038799685,31.3125,32.75,31.9375,36.0,38.9375,40.5,7,1,47.8068962097,1.34167671204,47.5849304199,47.7712593079,47.6852607727,47.5705947876,47.5419311523,47.5849304199
090320-16:51:33.004,-1.47230416933,-1.81046213726,-1.79159069061,-1.14351160944,1.5638217926,-1.49987441698,0.0423130169511,0.552445113659,-0.710572898388,0.164160951972,0.000828363816254,0.0434326417744,0.747796177864,3.99619150162,1.01527714729,0.573803603649,0.135880559683,0.301819801331,-0.340613594646,1.77675550563,0.268737039646,0.0900647828658,-0.0325226091663,0.315239242627,1.82896072788,31.3125,32.75,31.9375,36.0,38.9375,40.5,7,1,47.8033103943,1.3461483717,47.5849304199,47.7282600403,47.7282600403,47.5705947876,47.5419311523,47.5275993347
090320-16:51:33.011,-1.47190934816,-1.80605473141,-1.79722690582,-1.14226038874,1.56388235092,-1.49951392809,0.0423070453107,0.55048251152,-0.709326922894,0.146560192108,0.00184611743316,0.0446028187871,0.723796784878,4.00912189484,1.04698491096,0.717263698578,0.104037493467,0.315908879042,0.397134733224,1.03384971014,-0.265746784087,0.0732524347791,-0.0433803683125,0.31245200878,1.13893923137,31.3125,32.75,31.9375,36.0,38.9375,40.5,7,1,47.831073761,1.38195884228,47.5849304199,47.7282600403,47.6852607727,47.5705947876,47.5419311523,47.5705947876
090320-16:51:33.020,-1.47159845034,-1.8016735516,-1.80270290375,-1.14102967203,1.56383371353,-1.49906808535,0.0419526994228,0.548972845078,-0.703161418438,0.152980923653,0.000922398699913,0.0507106781006,0.797642230988,4.06283473969,0.679681897163,0.729561150074,0.124638825655,0.243711575866,-0.403549671858,-0.0497236798558,0.769641390691,0.0364003249145,-0.00856841449503,0.311866217666,0.870443939757,31.3125,32.75,31.9375,36.0,39.0,40.5,7,1,47.8095779419,1.44909751415,47.5705947876,47.7855911255,47.6852607727,47.5705947876,47.5849304199,47.5705947876
090320-16:51:33.027,-1.47123891512,-1.7973066769,-1.80819225311,-1.13962443293,1.56384515762,-1.49865800539,0.0422643236816,0.549227356911,-0.700270235538,0.17579574883,0.000453397864476,0.0541615709662,0.85226804018,4.00358057022,0.605433166027,0.313007414341,0.14361768961,0.136475786567,-0.492873313281,-1.1369444736,1.3535288663,-0.0304835553421,-0.0153588871106,0.317007536859,1.83510414715,31.3125,32.75,31.9375,36.0,39.0,40.5,7,1,47.814956665,1.42224097252,47.5849304199,47.699596405,47.7139282227,47.55626297,47.5849304199,47.55626297
090320-16:51:33.036,-1.47090417544,-1.79288544277,-1.81383991241,-1.1383946699,1.56384563446,-1.49820262591,0.0422577001154,0.551718473434,-0.698642373085,0.138798713684,0.000626249646302,0.0539479479194,0.927827298641,3.97874069214,0.527096807957,0.557271778584,0.147851377726,0.0374839603901,-0.604131087788,-1.70334730716,1.20745684911,-0.0591167337959,0.00861714032207,0.314045626427,2.17354973776,31.3125,32.75,31.9375,36.0,39.0,40.5,7,1,47.8301773071,1.43790769577,47.5992660522,47.6709289551,47.7282600403,47.6135978699,47.5419311523,47.5419311523
090320-16:51:33.044,-1.47053224245,-1.78847851376,-1.81947612762,-1.13737185419,1.56387042999,-1.49781018892,0.0438801124692,0.551894426346,-0.69657510519,0.13642051816,0.00206810794771,0.0478358231485,0.835555672646,3.9311466217,0.64923286438,0.675642549992,0.124868825078,0.0327012762427,-0.915815248556,0.52066005639,0.703443956394,0.028745626623,0.00139854673514,0.309677175103,1.26674301403,31.3125,32.75,31.9375,36.0,39.0,40.5,7,1,47.8239135742,1.44685637951,47.5849304199,47.699596405,47.6852607727,47.5705947876,47.5275993347,47.55626297
090320-16:51:33.052,-1.47019654909,-1.78408112148,-1.82509899139,-1.13623745859,1.56390619278,-1.4974287192,0.0441883690655,0.549442708492,-0.697605729103,0.147862046957,0.00175234803464,0.0431505851448,0.862099409103,4.04455947876,0.79044008255,0.487147927284,0.146988213062,0.0750814750791,0.0113620775075,1.15868722169,0.12585320182,0.0564350658384,-0.0337628320537,0.30660728029,1.16555746444,31.3125,32.75,31.9375,36.0,39.0,40.5,7,1,47.8212242126,1.34838950634,47.5705947876,47.6422653198,47.6709289551,47.5849304199,47.5419311523,47.6135978699
090320-16:51:33.060,-1.46981221834,-1.77968134503,-1.83068752289,-1.13510735453,1.56388235092,-1.49710637728,0.0465108528733,0.548534750938,-0.696677207947,0.127071142197,0.0022448298987,0.0398486256599,0.68525159359,4.20796775818,0.967640399933,0.725200235844,0.145132184029,0.154662624002,-0.337120265121,0.144802130819,0.174235619998,0.0136648481984,-0.00442158460408,0.310206159289,0.406172108251,31.3125,32.75,31.9375,36.0,39.0,40.5,7,1,47.8373451233,1.43566656113,47.5849304199,47.6565971375,47.6709289551,47.5705947876,47.5275993347,47.5275993347
090320-16:51:33.068,-1.46943933169,-1.77534880261,-1.8361158371,-1.13407977045,1.56391811371,-1.49678308169,0.0481713786721,0.547199487686,-0.690547049046,0.135518178344,0.00209533795714,0.0393263995647,0.658776640892,4.35335206985,0.830754160881,0.672671079636,0.137369424105,0.219919323921,-0.451355462495,-0.539303299997,0.480078411439,-0.0181360051885,-0.0163478868533,0.316009912235,0.851495792146,31.3125,32.75,31.9375,36.0,39.0,40.5,7,1,47.8095779419,1.38867163658,47.5275993347,47.699596405,47.6852607727,47.5275993347,47.5275993347,47.55626297
090320-16:51:33.076,-1.46901971499,-1.7709561787,-1.84164714813,-1.13288338602,1.56388235092,-1.49648219744,0.0500544086099,0.548831880093,-0.690662503242,0.149892792106,0.00249996478669,0.0408583059907,0.558416604996,4.37854480743,0.869485378265,0.373224526644,0.0943912863731,0.274111390114,-0.145044567392,-0.661642454722,0.70169234659,0.00847062335334,-0.0358053781002,0.313313288038,0.975284991007,31.3125,32.75,31.9375,36.0,39.0,40.5,7,1,47.8230133057,1.42000508308,47.5705947876,47.7139282227,47.6709289551,47.55626297,47.5275993347,47.5705947876
090320-16:51:33.084,-1.46860105196,-1.76658072094,-1.84725284576,-1.1317923826,1.56394147873,-1.49612123171,0.0494417250156,0.555038690567,-0.689767897129,0.123272076249,0.00111399055459,0.0432708188891,0.595906257629,4.1159954071,0.948826730251,0.550570189953,0.117407441139,0.318379789591,-0.318513716298,-1.03619462832,0.684061530253,-0.0207271550991,0.000507410655621,0.308886429664,1.28183090632,31.3125,32.75,31.9375,36.0,39.0,40.5,7,1,47.8283882141,1.40209722519,47.5132637024,47.7282600403,47.6852607727,47.6279296875,47.5849304199,47.5419311523
090320-16:51:33.091,-1.46822911898,-1.76212658505,-1.8528547287,-1.13090594233,1.56390571594,-1.49577171007,0.0509281530976,0.55642080307,-0.68466603756,0.114719033241,0.00101946608629,0.0477298386395,0.443264305592,4.11229705811,1.00162816048,0.748416721821,0.131354168057,0.307276964188,-0.707328553402,0.801230192923,0.42219378618,0.0499924764993,-0.00672242544972,0.312324871563,1.14914363663,31.3125,32.75,31.9375,36.0,39.0,40.5,7,1,47.8248062134,1.34838950634,47.55626297,47.7282600403,47.7282600403,47.6279296875,47.5275993347,47.5705947876
090320-16:51:33.099,-1.46782190004,-1.75768055538,-1.8582906723,-1.12995846689,1.56393003464,-1.49532443682,0.0504605360329,0.556746661663,-0.682335734367,0.133908510208,0.00160225341097,0.0539884753525,0.443704664707,4.01691246033,0.810507893562,0.527806460857,0.118075951934,0.231246709824,0.256850658732,1.36412649003,-0.284769023593,0.0418445639321,-0.0406076611533,0.31248362736,1.41700625916,31.3125,32.75,31.9375,36.0,39.0,40.5,7,1,47.8140563965,1.44685637951,47.6279296875,47.6709289551,47.6565971375,47.5132637024,47.5419311523,47.5705947876
090320-16:51:33.107,-1.46740323702,-1.75317158322,-1.86367893219,-1.12887127817,1.56391763687,-1.49489003817,0.0501135773957,0.556186437607,-0.678760349751,0.124964147806,0.000928458757699,0.0592915788293,0.472087800503,4.12959718704,0.760829150677,0.541560053825,0.137365460396,0.107684448361,-0.472224789706,-0.0336223420488,0.192127321483,0.00271937370039,-0.0154201878435,0.311053385445,0.510920367139,31.3125,32.75,31.9375,36.0,39.0,40.5,7,1,47.8391342163,1.41105115414,47.5992660522,47.7282600403,47.699596405,47.5705947876,47.5849304199,47.5419311523
090320-16:51:33.116,-1.46699697176,-1.74869312863,-1.86901760101,-1.12784178675,1.56392908096,-1.49444991747,0.0486891493201,0.557386338711,-0.673466444016,0.114213638008,0.00047176721273,0.0535633638501,0.529809296131,4.0943570137,0.551338613033,0.649231791496,0.144776925445,0.10228972137,-0.511326089266,-0.891105190558,1.15765896687,-0.0190626525112,-0.016929871256,0.309366231409,1.54780396491,31.3125,32.75,31.9375,36.0,39.0,40.5,7,1,47.8167457581,1.47147703171,47.6279296875,47.7425918579,47.699596405,47.5849304199,47.5419311523,47.5849304199
090320-16:51:33.124,-1.46662599245,-1.74419417004,-1.87438106537,-1.12693579615,1.56397771835,-1.49406940142,0.0482838600874,0.55847132206,-0.674079954624,0.121971964836,0.000787046563346,0.0471083968878,0.58648455143,3.96312236786,0.484835803509,0.535657763481,0.154101625085,0.17928981781,-0.349094809794,-0.822442904517,0.934070379545,-0.021873977855,-0.0193618192695,0.314163374088,1.29258152213,31.3125,32.75,31.9375,36.0,39.0,40.5,7,1,47.8257026672,1.45581030846,47.5132637024,47.7569236755,47.6709289551,47.4846000671,47.5419311523,47.5705947876
090320-16:51:33.132,-1.46623117128,-1.73960413555,-1.87992763519,-1.12595112742,1.56399011612,-1.49366313616,0.0483919642866,0.560697197914,-0.67564868927,0.124808490276,0.00208110408857,0.044228322804,0.685773670673,3.87207841873,0.781621456146,0.392743349075,0.147136390209,0.236952513456,-0.377657930559,0.290104883758,0.730493056431,0.0365483743384,-0.0278548607453,0.307016724131,0.872012879256,31.3125,32.75,31.9375,36.0,39.0,40.5,7,1,47.8498802185,1.34167671204,47.6135978699,47.7569236755,47.6422653198,47.55626297,47.5275993347,47.5705947876
090320-16:51:33.139,-1.46583635012,-1.73511280636,-1.88537693024,-1.12500937403,1.56401348114,-1.49331361452,0.0472653731704,0.563575446606,-0.67461758852,0.105115815997,0.000969838234596,0.047362357378,0.736120820045,3.61346340179,1.00483942032,0.52581769228,0.1213760674,0.266106903553,0.0616980554204,-0.242611215526,0.872293383124,0.0126504372489,-0.0232852269836,0.311449260259,0.907503497615,31.3125,32.75,31.9375,36.0,39.0,40.5,7,1,47.8301773071,1.3774818182,47.6279296875,47.699596405,47.699596405,47.6135978699,47.5849304199,47.6135978699
090320-16:51:33.147,-1.46548921267,-1.73064865688,-1.8907289505,-1.12427027643,1.5639538765,-1.49297696749,0.0473635829985,0.5653642416,-0.670495033264,0.0940871462226,0.000590738083702,0.0491318143904,0.78256213665,3.45526647568,0.823877871037,0.731122374535,0.142819106579,0.284947901964,-0.426363198562,1.07807710932,0.820877722693,0.0635178442089,-0.0190508300477,0.305390620458,1.42051964659,31.3125,32.75,31.9375,36.0,39.0,40.5,7,1,47.8221168518,1.32376873493,47.6422653198,47.6565971375,47.699596405,47.6135978699,47.5849304199,47.6422653198
090320-16:51:33.156,-1.4650943915,-1.72615589718,-1.89597225189,-1.12337334574,1.56400156021,-1.49255592028,0.045945327729,0.564603090286,-0.668273925781,0.110445946455,0.00109199411236,0.0518549866974,0.896007955074,3.64430379868,0.680691540241,0.577086210251,0.142089903355,0.313378632069,-0.184888595809,-0.486063022806,1.15856041495,0.00180184596079,-0.0185338265615,0.309995315573,1.26992255279,31.3125,32.75,31.9375,36.0,39.0,40.5,7,1,47.8265953064,1.36629199982,47.6135978699,47.7569236755,47.6852607727,47.5705947876,47.5419311523,47.5992660522
090320-16:51:33.163,-1.46471006075,-1.72165646176,-1.90127468109,-1.12245972574,1.56398963928,-1.49212056795,0.0478568300605,0.561510682106,-0.668003022671,0.110921978951,0.000758573645726,0.0596525557339,0.950755119324,3.83046865463,0.616146683693,0.423848807812,0.139790043235,0.209119707346,-0.63323439589,-0.942556185613,0.959064464352,-0.0101397261597,-0.00869973884693,0.307462671335,1.48633865924,31.3125,32.75,31.9375,36.0,39.0,40.5,7,1,47.8248062134,1.37300491333,47.6422653198,47.6709289551,47.6709289551,47.6135978699,47.5419311523,47.5992660522
090320-16:51:33.171,-1.46432573,-1.71710886578,-1.9066362381,-1.1216147703,1.56401348114,-1.4916861693,0.049384329468,0.562218785286,-0.663794398308,0.0936901718378,0.000734414963517,0.064563088119,0.861525952816,3.75275492668,0.70613193512,0.541534364223,0.161673173308,0.100844651461,-0.468343095938,-0.910423246344,1.23973984707,-0.0224785134868,-0.00628645724741,0.306573539048,1.60784658205,31.3125,32.75,31.9375,36.0,39.0,40.5,7,1,47.8095779419,1.41776394844,47.6422653198,47.6852607727,47.6565971375,47.5705947876,47.5419311523,47.55626297
090320-16:51:33.179,-1.46393090883,-1.71262850384,-1.91205501556,-1.12096817911,1.56397867203,-1.49119407335,0.0509483069181,0.561585724354,-0.660243332386,0.0890176072717,0.00233615026809,0.0650684162974,0.820674479008,3.83917140961,0.62899851799,0.671910524368,0.144059836864,-0.00623413547873,-0.422552730437,-0.669319377903,0.868920443275,-0.00977962412642,-0.0174107072629,0.308422213392,1.17539864573,31.3125,32.75,31.9375,36.0,39.0,40.5,7,1,47.8373451233,1.41105115414,47.5992660522,47.699596405,47.6565971375,47.5849304199,47.5849304199,47.5849304199
090320-16:51:33.187,-1.46352178255,-1.70812668423,-1.9173822403,-1.1202929777,1.56403779984,-1.49073201815,0.0528603605926,0.561599671841,-0.661972820759,0.0919260457158,0.00134163210168,0.055366769433,0.741723418236,3.83978581429,0.892241358757,0.688441932201,0.161937505007,0.0483710020781,-0.168645286854,0.236939570306,0.037158259037,0.0140111668685,-0.0246448635289,0.304266809125,0.293193330364,31.3125,32.75,31.9375,36.0,39.0,40.5,7,1,47.8239135742,1.31034314632,47.5992660522,47.699596405,47.7569236755,47.55626297,47.5419311523,47.6135978699
090320-16:51:33.195,-1.46308881441,-1.70364966015,-1.92256450653,-1.11951811731,1.56407403946,-1.49031573931,0.0543397217989,0.564585924149,-0.661644339561,0.103646874428,0.00182184902951,0.0479100048542,0.603627920151,3.67564249039,0.998089075089,0.494629919529,0.149871349335,0.131286561489,-0.400272292745,1.86600997533,0.0362711372065,0.102759447428,-0.0151255634946,0.307399017738,1.90880243392,31.3125,32.75,31.9375,36.0,39.0,40.5,7,1,47.8355522156,1.31929707527,47.5849304199,47.7569236755,47.6565971375,47.6135978699,47.5849304199,47.6279296875
090320-16:51:33.203,-1.46263295809,-1.69914450268,-1.92774486542,-1.11862118662,1.5640501976,-1.48990852038,0.054469961673,0.567041516304,-0.658731162548,0.0977022126317,0.00150494661648,0.04701846838,0.591443777084,3.77805137634,0.883710384369,0.382214665413,0.147519528866,0.208775877953,-0.607947617582,-0.613293906364,0.629560037404,0.0103322569989,0.0113562907799,0.309751091782,1.06867935416,31.3125,32.75,31.9375,36.0,39.0,40.5,7,1,47.8095779419,1.38195884228,47.5419311523,47.7425918579,47.6852607727,47.6279296875,47.5419311523,47.5849304199
090320-16:51:33.211,-1.46222573916,-1.6946174107,-1.93291378021,-1.11784918726,1.56404972076,-1.4896085898,0.0547105073929,0.569641053677,-0.656086564064,0.0778446793556,0.00111909187399,0.0477522686124,0.568613052368,3.70831418037,0.796202778816,0.518823981285,0.179038375616,0.261200487614,-0.3175613483,-2.11739457228,1.07068403469,-0.0475845073389,-0.00845214153637,0.306158536472,2.39386074925,31.3125,32.75,31.9375,36.0,39.0,40.5,7,1,47.8095779419,1.36405622959,47.5132637024,47.699596405,47.6422653198,47.5275993347,47.5275993347,47.5849304199
090320-16:51:33.219,-1.46172124544,-1.69004740338,-1.93826198578,-1.11729891718,1.56409788132,-1.48918658892,0.0551367476583,0.56718981266,-0.65378087759,0.0710923671722,0.0020073573105,0.0520332269371,0.599063575268,3.80155706406,0.656557917595,0.63036608696,0.149387359619,0.289567023516,0.121800764344,-0.865655249676,0.874413268674,-0.0170824209122,-0.0155517614203,0.307563428943,1.23644369137,31.3125,32.75,31.9375,36.0,39.0,40.5,7,1,47.8445091248,1.38867163658,47.6709289551,47.7282600403,47.7139282227,47.5705947876,47.5419311523,47.6135978699
090320-16:51:33.227,-1.46128923098,-1.68541874508,-1.94363498688,-1.11674530924,1.56404972076,-1.48875123659,0.0559240579605,0.57233196497,-0.650642991066,0.0744002759457,0.00131839443929,0.0588335171342,0.551957249641,3.58910560608,0.819404125214,0.652398705482,0.139829024673,0.252035140991,-0.452106572692,-0.288493551162,0.350777655967,0.0206605505524,0.00152454349838,0.30956419389,0.640838393091,31.3125,32.75,31.9375,36.0,39.0,40.5,7,1,47.8319702148,1.36852788925,47.5992660522,47.7282600403,47.699596405,47.5705947876,47.55626297,47.5992660522
090320-16:51:33.235,-1.46086961428,-1.68079533199,-1.94887638092,-1.11617548883,1.56406211853,-1.48829299608,0.054826490581,0.57280755043,-0.647947251797,0.0829328373075,0.00196247850545,0.0653475895524,0.570209860802,3.6154127121,0.861773371696,0.54300647974,0.141849890351,0.162745907903,0.210413022748,0.718761229314,-0.00817246485856,0.0533286983093,-0.0305685867125,0.311160021508,0.748971384025,31.3125,32.75,31.9375,36.0,39.0,40.5,7,1,47.8283882141,1.31705594063,47.5705947876,47.7425918579,47.6565971375,47.5992660522,47.5849304199,47.6279296875
090320-16:51:33.243,-1.46042520205,-1.67624678234,-1.95401096344,-1.11546786249,1.5641579628,-1.48774224917,0.0550582259893,0.571186840534,-0.648262679577,0.080034583807,0.00180519861169,0.0631616488099,0.599011063576,3.68774032593,0.948912978172,0.467016220093,0.140702515841,0.119230106473,0.822759339622,0.427906842151,0.362199201899,0.0502125212654,-0.0497153238322,0.316376017984,0.995603062647,31.3125,32.75,31.9375,36.0,39.0,40.5,7,1,47.8355522156,1.36852788925,47.5992660522,47.7855911255,47.699596405,47.5419311523,47.5419311523,47.5992660522
090320-16:51:33.251,-1.45999414126,-1.6716700993,-1.95901012421,-1.11478932322,1.56412124634,-1.48731547991,0.0538736097515,0.57200717926,-0.642748057842,0.0690862461925,0.00112459866796,0.0541494041681,0.717490911484,3.6543366909,0.646853089333,0.498940825462,0.152908608317,0.190350845456,-0.500834227024,-1.13292036814,1.22173416779,-0.0370513641015,-0.00727248433038,0.318743611841,1.73982121503,31.25,32.75,31.9375,36.0,39.0,40.5,7,1,47.8373451233,1.31034314632,47.5132637024,47.6709289551,47.7139282227,47.55626297,47.5419311523,47.6135978699
090320-16:51:33.260,-1.45958692232,-1.66706766705,-1.96410655975,-1.1142886442,1.56410932541,-1.48690921465,0.0525957979262,0.575826942921,-0.643985927105,0.0586679056287,0.0010395871941,0.0509409606457,0.896765470505,3.43695354462,0.771642684937,0.60574400425,0.155714899302,0.281921565533,-0.720634302512,-1.03050324522,1.09081811886,-0.0235402362288,0.00681043505697,0.306886147454,1.6646726119,31.25,32.75,31.9375,36.0,39.0,40.5,7,1,47.8552589417,1.41105115414,47.5705947876,47.7282600403,47.699596405,47.5849304199,47.5849304199,47.5849304199
090320-16:51:33.268,-1.45915490786,-1.66246904949,-1.96929836273,-1.11389191568,1.5641579628,-1.48647624651,0.0528248511255,0.57870298624,-0.643304824829,0.0588287077844,0.00232764496468,0.0532590895891,0.949640154839,3.39361190796,0.728467464447,0.636938929558,0.148048982024,0.329065382481,-0.211018855712,-0.740006356467,0.824372707076,0.00328394616759,-0.0111006312394,0.309089418183,1.12770950393,31.25,32.75,32.0,36.0,38.9375,40.5,7,1,47.8086853027,1.27900969982,47.5132637024,47.7282600403,47.699596405,47.5849304199,47.5705947876,47.5705947876
090320-16:51:33.276,-1.45874673525,-1.65786804775,-1.97453403473,-1.1134122175,1.5641579628,-1.4860308806,0.053950522095,0.578777253628,-0.639387845993,0.0587645433843,0.00153910578229,0.0563370361924,0.987048506737,3.40913772583,0.637614607811,0.669077455997,0.151372969151,0.337037950754,-0.694972690905,0.471768117697,0.617195545801,0.00451708562169,-0.0143909602792,0.30684776345,1.04234473172,31.25,32.75,32.0,36.0,38.9375,40.5,7,1,47.8463020325,1.3841946125,47.6135978699,47.7425918579,47.6565971375,47.5849304199,47.5849304199,47.6135978699
090320-16:51:33.284,-1.4583252112,-1.65317263226,-1.97972393036,-1.11293919504,1.56414604187,-1.48555976549,0.0564507395029,0.577460706234,-0.63926678896,0.0652402341366,0.00171736942139,0.063546590507,0.888846218586,3.59538173676,0.902999162674,0.56997269392,0.166259229183,0.284790158272,-0.00279753248255,0.767424664691,0.321557139786,0.0288793850964,-0.0305896616019,0.314129838988,0.832074177169,31.25,32.75,32.0,36.0,38.9375,40.5,7,1,47.8328666687,1.35957920551,47.5705947876,47.7139282227,47.6709289551,47.5849304199,47.5419311523,47.55626297
090320-16:51:33.291,-1.45785695711,-1.64857592205,-1.98486614227,-1.11245949686,1.56419324875,-1.48504192034,0.0573326461017,0.579105556011,-0.637676715851,0.0645090118051,0.00187725981232,0.06832434237,0.820997476578,2.86080622673,1.57588624954,0.453082531691,0.138502284884,0.170966744423,-0.0454472517378,1.14574623138,0.0899553389753,0.0587609043731,-0.0298915432343,0.314403077518,1.15017035366,31.25,32.75,32.0,36.0,38.9375,40.5,7,1,47.8525695801,1.16711187363,47.5705947876,47.699596405,47.7139282227,47.5849304199,47.5705947876,47.6279296875
090320-16:51:33.300,-1.45736581484,-1.64411940197,-1.98969173431,-1.11197216929,1.56419324875,-1.48446590105,0.0559687912464,0.549223184586,-0.604618966579,0.0549196787179,0.00139998737723,0.0690068826079,0.884751498699,2.97653341293,1.55509924889,0.402465641499,0.15246322751,0.0505768582225,-0.833319711012,0.597596022418,0.193471992199,0.0330651612153,-0.0146581092236,0.316584132926,1.04353924629,31.25,32.75,32.0,36.0,38.9375,40.5,7,1,47.8677902222,1.14472699165,47.6135978699,47.7712593079,47.7569236755,47.6279296875,47.6422653198,47.6135978699
090320-16:51:33.308,-1.4569328467,-1.6398297749,-1.99436664581,-1.11158163965,1.56420469284,-1.48395568529,0.0562478229403,0.529904127121,-0.577768862247,0.0406474657357,0.00132273894269,0.0591748431325,0.672920703888,2.89475870132,1.35392355919,0.523023605347,0.152753591537,0.0316130891442,-0.235322556273,0.432257929973,-0.00962679045063,0.0316435923284,-0.0198147682012,0.308857926871,0.49225633425,31.25,32.75,32.0,36.0,38.9375,40.5,7,1,47.8445091248,1.20515823364,47.6422653198,47.7425918579,47.7569236755,47.6135978699,47.6565971375,47.6279296875
090320-16:51:33.316,-1.45651513735,-1.63557638744,-1.9988451004,-1.11130793512,1.56422948837,-1.48350602785,0.0541292242706,0.512698769569,-0.548541605473,0.0357068404555,0.00173610006459,0.0470658577979,0.673940300941,2.48415708542,1.108907938,0.557961463928,0.157242178917,0.114889740944,-0.266858579388,0.497448407148,0.509957609089,0.00490377639591,-0.0161247020602,0.316096786331,0.760739891313,31.25,32.75,32.0,36.0,38.9375,40.5,7,1,47.8866043091,1.19396841526,47.6279296875,47.7712593079,47.7855911255,47.6279296875,47.6709289551,47.6565971375
090320-16:51:33.324,-1.45610696474,-1.63154615978,-2.00313663483,-1.1110099119,1.5642414093,-1.48317224184,0.0523888804018,0.494594246149,-0.524590134621,0.031195262447,0.0016581035452,0.0422699153423,0.662115871906,2.25458621979,1.46307229996,0.599123239517,0.130792737007,0.207351475954,-0.361031953538,0.8414390603,1.18862589148,0.0450594443911,-0.0187244959432,0.306261109081,1.50039837162,31.25,32.75,32.0,36.0,38.9375,40.5,7,1,47.8498802185,1.05297291279,47.6135978699,47.7855911255,47.7569236755,47.5992660522,47.6422653198,47.6279296875
090320-16:51:33.331,-1.45570069948,-1.62772526364,-2.00727367401,-1.11074717463,1.56426477432,-1.48286182085,0.0498549677432,0.469601482153,-0.501341283321,0.0271621979773,0.00117083278019,0.0406640209258,0.707953333855,2.33265590668,1.48587608337,0.621412873268,0.139238148928,0.24315071106,0.203187634456,1.31566216564,0.881802894539,0.0619772254833,-0.0462396460659,0.312576461443,1.59681824066,31.25,32.75,32.0,36.0,38.9375,40.5,7,1,47.8579406738,1.09996795654,47.6422653198,47.7425918579,47.7139282227,47.6422653198,47.699596405,47.6565971375
090320-16:51:33.340,-1.45528299013,-1.62396587948,-2.01121616364,-1.11056836069,1.56421709061,-1.48247701326,0.0475132390857,0.449736177921,-0.475537359715,0.0242637321353,0.00136199383996,0.0417777113616,0.713919758797,2.16679525375,1.37973606586,0.691670894623,0.121854513884,0.274239957333,-0.683723174234,1.39758869304,0.451160306787,0.0496931844031,-0.00622669830618,0.315140683679,1.61996208484,31.25,32.75,32.0,36.0,38.9375,40.5,7,1,47.8892860413,1.12458860874,47.6852607727,47.8429222107,47.7855911255,47.6422653198,47.699596405,47.699596405
090320-16:51:33.348,-1.45494729677,-1.62051643948,-2.0148973465,-1.11044962824,1.56424093246,-1.48220044771,0.0444764569402,0.423737555742,-0.454658806324,0.0222315881401,0.0014714715071,0.0435213446617,0.7596398592,2.34971880913,1.75604212284,0.728123009205,0.140575110912,0.28863632679,-0.0729966479711,2.11147303058,0.0161435672538,0.0866832139877,-0.035896691587,0.309690671667,2.11279612936,31.25,32.75,32.0,36.0,38.9375,40.5,7,1,47.866897583,1.07311666012,47.7425918579,47.8859214783,47.7855911255,47.6135978699,47.6279296875,47.6709289551
090320-16:51:33.356,-1.45460015932,-1.61717285732,-2.01828670502,-1.11021883905,1.56422901154,-1.48176700274,0.0422176197171,0.403356671333,-0.422874540091,0.0261221081018,0.00108528044075,0.0474663637578,0.77437722683,2.18137049675,1.38973903656,0.689005017281,0.136824086308,0.226561248302,0.0577808577346,1.10562846283,0.48443207397,0.0395491192775,-0.0465343984536,0.31636601471,1.20848142709,31.25,32.75,32.0,36.0,38.9375,40.5,7,1,47.9107818604,1.09996795654,47.6852607727,47.8429222107,47.7999229431,47.6422653198,47.6422653198,47.7569236755
090320-16:51:33.364,-1.45430261294,-1.61412109951,-2.02153682709,-1.10999138773,1.56427717209,-1.48139506975,0.03954673931,0.378439426422,-0.403851419687,0.0250563118607,0.00220325659029,0.0478904023767,0.835461974144,2.3245639801,1.58639383316,0.641378998756,0.117386132479,0.144230231643,-1.33752950465,1.0094877658,0.904310793492,0.0536209961067,-0.0101149239308,0.310412773794,1.90416090085,31.25,32.75,32.0,36.0,38.9375,40.5,7,1,47.8660011292,1.04178321362,47.6422653198,47.8715858459,47.7712593079,47.6422653198,47.6279296875,47.6135978699
090320-16:51:33.373,-1.45396691958,-1.61117138485,-2.0245923996,-1.10982401789,1.56430053711,-1.48106128374,0.0374848879874,0.359008789062,-0.377136081457,0.0237358212471,0.00100024521817,0.0446769036353,0.827924370766,2.11200523376,1.38247776031,0.594766736031,0.138614296913,0.0677849128842,-0.167124233221,1.64282088555,0.570943489861,0.0385420362431,-0.0376284969607,0.311530259172,1.74721705576,31.25,32.75,32.0,36.0,38.9375,40.5,7,1,47.8901824951,1.07982945442,47.6852607727,47.8285903931,47.8285903931,47.6709289551,47.6852607727,47.6709289551
090320-16:51:33.380,-1.4537170569,-1.60838141064,-2.02754116058,-1.10966809214,1.56430053711,-1.48071796099,0.0347238779068,0.336577236652,-0.356374800205,0.0217721033841,0.000703224912286,0.0363437831402,0.875502109528,2.14249444008,1.74158346653,0.561744987965,0.143383949995,0.0943428426981,-0.43538992798,0.801804087304,1.09552646205,0.0392558866821,-0.00933908461217,0.311319932126,1.4257041814,31.25,32.75,32.0,36.0,38.9375,40.5,7,1,47.8946609497,1.09549629688,47.699596405,47.8285903931,47.7569236755,47.699596405,47.6565971375,47.6565971375
090320-16:51:33.389,-1.45343095461,-1.60585369686,-2.03027248383,-1.10952599466,1.56430101395,-1.48045665423,0.0326119028032,0.315983623266,-0.327440083027,0.0173336546868,0.00157512386795,0.0303250346333,0.902445316315,1.94418096542,1.55872106552,0.511600375175,0.144448727369,0.133743405342,-0.330852362246,1.33079567096,0.642749167417,0.0665620485668,-0.0245138130908,0.315907422658,1.51446587801,31.25,32.75,32.0,36.0,38.9375,40.5,7,1,47.8866043091,1.10220909119,47.6852607727,47.8142547607,47.7855911255,47.6135978699,47.6709289551,47.6852607727
090320-16:51:33.396,-1.4532383124,-1.60342230419,-2.03283786774,-1.10937149942,1.56430053711,-1.48021918932,0.0312518700957,0.289242863655,-0.307090073824,0.0150033058599,0.0011196937412,0.0259898770601,0.864891946316,2.16481256485,1.81036472321,0.500619292259,0.13177344203,0.20428493619,-0.355431783049,0.832212286429,0.861027345766,0.041748988728,-0.0226024566814,0.308047366974,1.24911053644,31.25,32.75,32.0,36.0,38.9375,40.5,7,1,47.8812255859,0.972408652306,47.6565971375,47.8142547607,47.7855911255,47.6422653198,47.6709289551,47.6852607727
090320-16:51:33.404,-1.45296365419,-1.60119356732,-2.0351858139,-1.10932429255,1.56430053711,-1.48002845446,0.0289619434625,0.268577754498,-0.278273850679,0.0124694714323,0.000710820779204,0.0237225443125,0.78623855114,2.00817799568,1.57994937897,0.434703528881,0.127131789923,0.234917998314,-1.00009602483,1.53070681974,0.643652752859,0.034974528357,-0.0229421426307,0.305950922233,1.93843862249,31.25,32.75,32.0,36.0,38.9375,40.5,7,1,47.8892860413,1.04849600792,47.6422653198,47.8142547607,47.7712593079,47.6709289551,47.6709289551,47.6852607727
090320-16:51:33.412,-1.45274907747,-1.59920706371,-2.03736782074,-1.10926754892,1.56431245804,-1.47982436815,0.0268740747124,0.243701860309,-0.257217675447,0.00570904137567,0.000562436587643,0.0236078444868,0.80963242054,2.11408352852,1.74814796448,0.482315093279,0.127897903323,0.23831152916,-0.769290053489,1.691552896,0.296406610809,0.0336099460864,-0.0323797307419,0.30859135182,1.88175855659,31.25,32.75,32.0,36.0,38.9375,40.5,7,1,47.8794364929,0.994788229465,47.6709289551,47.8285903931,47.8572540283,47.6565971375,47.6565971375,47.6852607727
090320-16:51:33.420,-1.45252210299,-1.59734978298,-2.03932094574,-1.10920842112,1.56426477432,-1.47964507738,0.02539489232,0.219738438725,-0.233015418053,0.00392229948193,0.0011936557712,0.022679887712,0.788256347179,2.24035835266,1.83196234703,0.460998117924,0.141186282039,0.251723557711,-0.518374896607,1.72531212576,0.368158483478,0.0336039809833,-0.0249808062905,0.31140323436,1.83873737486,31.25,32.75,32.0,36.0,38.9375,40.5,7,1,47.9036140442,1.0596858263,47.6709289551,47.8142547607,47.7855911255,47.699596405,47.6565971375,47.6422653198
090320-16:51:33.427,-1.45237905184,-1.59569563488,-2.04110622406,-1.10919650019,1.56434869766,-1.47949058214,0.0231927782297,0.198452994227,-0.206909179688,0.0038066636771,0.00150044134352,0.0207761991769,0.768765985966,2.22647285461,1.80888080597,0.459988176823,0.110952526331,0.26766705513,-0.445143638422,1.49648742742,0.254330755543,0.0331144107191,-0.0197251078326,0.302107524578,1.58186965723,31.25,32.75,32.0,36.0,38.9375,40.5,7,1,47.8821258545,1.06192696095,47.6852607727,47.8285903931,47.8572540283,47.6422653198,47.699596405,47.7139282227
090320-16:51:33.436,-1.45214063326,-1.5942226849,-2.04261684418,-1.10917313517,1.5643248558,-1.4793232123,0.0207931101322,0.176344364882,-0.18325906992,0.00194321118761,0.000826511939522,0.0190142802894,0.774478793144,2.237844944,1.91287112236,0.478379935026,0.120603308082,0.2857888937,-0.506896142738,1.70317682277,-0.0842965727489,0.0557206349881,-0.0262050398471,0.304189191933,1.77900559339,31.25,32.75,32.0,36.0,38.9375,40.5,7,1,47.9063034058,1.02163946629,47.6565971375,47.8142547607,47.8142547607,47.6852607727,47.7425918579,47.6422653198
090320-16:51:33.444,-1.45199853579,-1.59292759518,-2.04391002655,-1.10912497461,1.5643362999,-1.47919208208,0.0191570408642,0.154181718826,-0.160013139248,0.0025445157662,0.000490416714456,0.0175435431302,0.683335542679,2.15296339989,1.75276064873,0.464609622955,0.131625860929,0.286847800016,-0.552825749901,1.24520463804,0.316982128799,0.0490799047876,-0.0324629215487,0.303807703784,1.39879539973,31.25,32.75,32.0,36.0,38.9375,40.5,7,1,47.8866043091,1.02163946629,47.6565971375,47.7712593079,47.7855911255,47.5992660522,47.6709289551,47.6709289551
090320-16:51:33.451,-1.45186692873,-1.59175314526,-2.04507350922,-1.10908873499,1.56437253952,-1.47906238237,0.0159386880696,0.131143346429,-0.137581348419,0.0025508175604,0.000559829350095,0.014191317372,0.62127405405,2.07945871353,1.84738790989,0.461682647467,0.1250641644,0.293801724911,-0.274699641491,0.623710535645,0.51409026095,0.0408791145138,-0.0356217451546,0.304914954656,0.853676473679,31.25,32.75,32.0,36.0,38.9375,40.5,7,1,47.9242134094,1.01716780663,47.699596405,47.8142547607,47.8142547607,47.6852607727,47.6565971375,47.7425918579
090320-16:51:33.460,-1.45174867312,-1.59081902126,-2.04604434967,-1.10907633722,1.56436014175,-1.47893077532,0.0132979871705,0.108869798481,-0.112383134663,0.00328979990445,0.000527227006387,0.0132174631581,0.67451274395,2.13538455963,1.85754728317,0.432004749775,0.128038823605,0.280839771032,-0.409552025787,1.06452080434,0.750637197817,0.0260192192205,-0.0428903582977,0.305726710514,1.36542799423,31.25,32.75,32.0,36.0,38.9375,40.5,7,1,47.9000358582,0.981357336044,47.6565971375,47.7712593079,47.7999229431,47.699596405,47.6565971375,47.6852607727
090320-16:51:33.468,-1.45165330568,-1.59002604107,-2.0468454361,-1.1090772909,1.56437253952,-1.47878772417,0.0109336879104,0.0875764116645,-0.0878039374948,0.00149567972403,0.000477644061903,0.0111113702878,0.585584461689,1.97039842606,1.64880442619,0.42810934782,0.12174603343,0.262542277575,-0.352197571426,1.50944166218,0.421358389204,0.0427266562955,-0.0347264115543,0.306301404203,1.60623788804,31.25,32.75,32.0,36.0,38.9375,40.5,7,1,47.9098854065,1.04626011848,47.6852607727,47.7855911255,47.8285903931,47.6852607727,47.699596405,47.6422653198
090320-16:51:33.476,-1.45159608523,-1.58941521267,-2.04745769501,-1.10908968866,1.56437253952,-1.47877818743,0.00617485959083,0.0641748979688,-0.064951993525,0.00092953722924,0.000370142108295,0.00649159774184,0.581121206284,1.98792135715,1.88234567642,0.424577713013,0.113219991326,0.268043875694,-0.25531031842,1.33911751292,0.384264577286,0.0441932041658,-0.0332593321435,0.303245744609,1.41636094886,31.25,32.75,32.0,36.0,38.9375,40.5,7,1,47.9089927673,1.06863975525,47.7282600403,47.8859214783,47.8715858459,47.7855911255,47.6852607727,47.7282600403
090320-16:51:33.484,-1.45153695742,-1.58900799374,-2.04781627655,-1.10905392588,1.56439638138,-1.47874385515,0.00233606062829,0.0409994460642,-0.0399612337351,0.00068527890835,0.000278461666312,0.0026720892638,0.527354598045,2.03109884262,1.69581472874,0.443683028221,0.11859627068,0.243017762899,-0.125227750066,0.819829563043,0.80574468819,0.0460670314902,-0.030722523945,0.298969709775,1.1562988387,31.25,32.75,32.0,36.0,38.9375,40.5,7,1,47.8660011292,0.985834300518,47.6709289551,47.7569236755,47.7712593079,47.6709289551,47.6565971375,47.6279296875
090320-16:51:33.492,-1.45157510439,-1.58880295376,-2.04800891876,-1.10902913034,1.56437206268,-1.47872096697,0.000167738922755,0.019041582942,-0.017181340605,0.00158115813974,0.000223194554565,0.00109006406274,0.37910091877,1.89582777023,1.67253649235,0.423304915428,0.111902371049,0.224108695984,-0.150593076276,0.842415421256,0.924627750154,0.0374942987237,-0.0255005298344,0.304410201206,1.25987241138,31.25,32.75,32.0,36.0,38.9375,40.5,7,1,47.9116744995,0.999259889126,47.7282600403,47.8142547607,47.8285903931,47.7569236755,47.699596405,47.699596405
090320-16:51:33.500,-1.45157701174,-1.58880438427,-2.04807949066,-1.10904152811,1.56436014175,-1.47872144381,-0.00255855452269,-0.00763980764896,0.009416221641,0.000731576175895,0.000186236036825,8.66471600602e-06,0.649681448936,2.10129404068,2.03944587708,0.348697423935,0.118531763554,0.262522280216,-0.583687756329,1.49227885772,0.67494587338,0.0444238271476,-0.0160541562178,0.298194033526,1.73871777988,31.25,32.75,32.0,36.0,38.9375,40.5,7,1,47.9000358582,0.988070130348,47.6852607727,47.8285903931,47.7999229431,47.6852607727,47.6852607727,47.699596405
090320-16:51:33.508,-1.45146733919,-1.58876766781,-2.04797267914,-1.10911305368,1.56436014175,-1.47857267061,0.0233638752252,0.0177511274815,0.00810175109655,-0.0220480393618,0.000253359699855,0.0330573767424,1.16118073463,2.62611103058,2.21489882469,0.241701006889,0.135230451822,0.23875361681,-0.985426026476,-0.00250750718928,0.66135821625,0.00789127091035,-0.0215969296813,0.336694945888,1.18678786287,31.25,32.75,32.0,36.0,38.9375,40.5,7,1,47.9260063171,1.13353729248,47.6709289551,47.8572540283,47.8285903931,47.699596405,47.7282600403,47.6852607727
090320-16:51:33.516,-1.45125466982,-1.58863319973,-2.04786205292,-1.1092723173,1.56432437897,-1.4782298247,0.0393412522972,0.0233362987638,0.0156396199018,-0.0288789570332,0.000230293851928,0.0467796809971,1.45456600189,2.85195565224,2.1674785614,0.158086657524,0.175100296736,0.249087959528,-2.98438436484,0.571543033838,0.626708104385,0.0239750841724,0.0627852848782,0.30903404529,3.1025754664,31.25,32.75,32.0,36.0,38.9375,40.5,7,1,47.9143638611,1.0596858263,47.6852607727,47.8572540283,47.7999229431,47.6709289551,47.699596405,47.699596405
090320-16:51:33.524,-1.45085031191,-1.58846201519,-2.04776477814,-1.10956938684,1.56433868408,-1.47775298754,0.0580067448318,0.0301529038697,0.0165571160614,-0.0448799952865,0.00502103986219,0.0656677857041,1.37657785416,3.06783175468,2.32756567001,0.132304191589,0.133074849844,0.163342773914,-2.34654680397,0.369953986771,-0.0241905004141,0.000698569956957,0.0446173934163,0.315819078255,2.37565423323,31.25,32.75,32.0,36.0,38.9375,40.5,7,1,47.8830184937,1.05744993687,47.6279296875,47.8142547607,47.7855911255,47.5705947876,47.6709289551,47.6709289551
090320-16:51:33.532,-1.45028764406,-1.58820643047,-2.04763317108,-1.10992701471,1.56436252594,-1.47713357607,0.0778697729111,0.0385372675955,0.0176250841469,-0.0639696493745,0.00489217881113,0.0814647674561,1.34585630894,3.15048265457,2.52681922913,0.210427224636,0.169367417693,0.0934399291873,-1.37620443014,0.320166530837,-0.483152914505,0.00402553958313,-0.0107954198249,0.314376224379,1.4932789357,31.25,32.75,32.0,36.0,38.9375,40.5,7,1,47.8731689453,1.01940357685,47.6709289551,47.7569236755,47.7712593079,47.6709289551,47.6422653198,47.6852607727
090320-16:51:33.540,-1.4495361487,-1.58780588726,-2.04748630524,-1.11047251642,1.56441116333,-1.47647077242,0.0947280228138,0.0490045696497,0.0210936255753,-0.0753263011575,0.00552031537518,0.0876260325313,1.46935784817,3.19894647598,2.63900303841,0.199045792222,0.133428394794,0.18969476223,-1.71755995878,0.502918422419,-0.396342210502,0.0306487187339,0.0283828530427,0.311019052663,1.83303745173,31.25,32.75,32.0,36.0,38.9375,40.5,7,1,47.9071998596,1.11339879036,47.6135978699,47.8142547607,47.8429222107,47.6709289551,47.6709289551,47.6852607727
090320-16:51:33.548,-1.44874650637,-1.58739437679,-2.04725551605,-1.11102803171,1.56445884705,-1.4756749312,0.114122577012,0.0587044432759,0.0266214944422,-0.0797841474414,0.00591545179486,0.0970800444484,1.33605933189,3.18440246582,2.59711265564,0.034588098526,0.14500066638,0.349301815033,-1.91686292457,-0.375521866193,-0.111475447743,-0.0262607265446,0.0109962919773,0.315711099792,1.95647819283,31.25,32.75,32.0,36.0,38.9375,40.5,7,1,47.8964538574,1.03730618954,47.6565971375,47.7569236755,47.7282600403,47.6279296875,47.6565971375,47.6422653198
090320-16:51:33.556,-1.44770700136,-1.58688702206,-2.04705142975,-1.11162264765,1.5645070076,-1.47477323214,0.129128485918,0.0683329179883,0.0302697662264,-0.0909123197198,0.00605075061321,0.123327806592,1.45464611053,3.14374351501,2.65462803841,-0.128927841783,0.123784184456,0.388406157494,-2.1595040238,-0.464141991662,0.381319367569,-0.0079627384896,0.0291847527931,0.311952960069,2.24149277878,31.25,32.75,32.0,36.0,38.9375,40.5,7,1,47.8758544922,1.15816318989,47.6709289551,47.7712593079,47.7855911255,47.6852607727,47.6852607727,47.6852607727
090320-16:51:33.767,-1.37482339541,-1.55336792887,-2.02492618561,-1.16815216959,1.56684732437,-1.40211803118,0.473079264164,0.187009945512,0.167853027582,-0.349014550447,0.0157182235271,0.457968294621,1.208070755,2.67075395584,3.10163497925,-0.147270828485,0.300059586763,0.331465452909,-1.1896760994,-0.0195354366631,0.820462935582,0.0268927467469,0.028207235294,0.335210864348,1.44529245603,31.25,32.75,32.0,36.0,38.9375,40.5,7,1,47.8283882141,1.3841946125,47.5419311523,47.7139282227,47.6422653198,47.5992660522,47.5419311523,47.5849304199
090320-16:51:33.772,-1.37095338503,-1.55187495173,-2.02357006073,-1.17112477243,1.56702804565,-1.39834195772,0.467244356871,0.185104772449,0.17186999321,-0.36312687397,0.0181262306869,0.464112013578,1.40712690353,2.60211038589,3.07498216629,0.0463947281241,0.277433216572,0.239246875048,-0.389907356814,-0.26345672751,0.365619702186,0.00214416150709,-0.00420754735167,0.332673973903,0.595915229538,31.25,32.75,32.0,36.0,38.9375,40.5,7,1,47.8194351196,1.33943557739,47.55626297,47.7569236755,47.6422653198,47.5275993347,47.55626297,47.6135978699
090320-16:51:33.780,-1.36715013186,-1.5504258436,-2.0221529007,-1.17403014124,1.56720876694,-1.39471656481,0.472785830498,0.183904096484,0.177727267146,-0.366415888071,0.019238634035,0.461458951235,1.01976132393,2.48402476311,2.84847974777,0.108330130577,0.291286408901,0.363686382771,0.407881300265,-0.0600601266719,0.299124623609,0.0188829265,-0.0420570772208,0.338463258284,0.509362262413,31.25,32.75,32.0,36.0,38.9375,40.5,7,1,47.8561515808,1.29691755772,47.6422653198,47.7139282227,47.7282600403,47.6279296875,47.5849304199,47.5849304199
090320-16:51:33.788,-1.36333734194,-1.54892046869,-2.02072620392,-1.17683775843,1.56736421585,-1.39094764391,0.472241550684,0.179385438561,0.177116259933,-0.372302830219,0.0199971720576,0.463115572929,1.05642282963,2.60994791985,3.12647104263,0.120771467686,0.261493563652,0.349938154221,0.33938625322,0.0509529823954,0.897169191241,0.0209773723397,-0.0503532794837,0.345882388084,0.960568473874,31.25,32.75,32.0,36.0,38.9375,40.5,7,1,47.8454017639,1.39986133575,47.6135978699,47.7425918579,47.699596405,47.5849304199,47.5849304199,47.5849304199
090320-16:51:33.796,-1.35965806643,-1.54757245005,-2.01929950714,-1.17960865915,1.56749486923,-1.38718015352,0.469219386578,0.173585698009,0.180246725678,-0.363526433706,0.018062023446,0.473856657743,1.25487661362,2.6987285614,3.08974218369,-0.0664208084345,0.248324900866,0.312065422535,-0.334762959545,-0.165481033692,1.36421335668,0.0061060320061,-0.033166013772,0.337648061936,1.41440033022,31.25,32.75,32.0,36.0,38.9375,40.5,7,1,47.8463020325,1.41328704357,47.5992660522,47.7712593079,47.7139282227,47.6135978699,47.6709289551,47.6279296875
090320-16:51:33.804,-1.35590345064,-1.5461705488,-2.01787090302,-1.18258030832,1.56768751144,-1.38335019747,0.47149464488,0.17415882647,0.1844625175,-0.358468532562,0.0198564194143,0.46955704689,1.00196027756,2.60352420807,3.00383710861,-0.123482562602,0.244159698486,0.295500576496,-0.750035115883,1.51935666672,0.392289633696,0.0784307639187,-0.0187024190676,0.333980484962,1.73922066238,31.25,32.75,32.0,36.0,38.9375,40.5,7,1,47.8248062134,1.37971770763,47.55626297,47.6709289551,47.6709289551,47.55626297,47.5275993347,47.5705947876
090320-16:51:33.812,-1.35216409365,-1.54478342951,-2.01641750336,-1.18554861963,1.5678191185,-1.3795059363,0.470534026623,0.17193287611,0.187921822071,-0.35595113039,0.0202453900129,0.479629516602,1.19170808792,2.48061180115,2.97235059738,-0.0279065649956,0.19916562736,0.175413876772,-0.991942930265,0.647751797303,-0.0353455257554,0.0265237504304,-0.00160310062001,0.34373586934,1.18523519776,31.25,32.75,32.0,36.0,38.9375,40.5,7,1,47.8265953064,1.32376873493,47.55626297,47.6565971375,47.6565971375,47.5705947876,47.5705947876,47.5849304199
090320-16:51:33.820,-1.34838563601,-1.54347117365,-2.01492023468,-1.18835575998,1.5680346489,-1.37574893633,0.473430335522,0.16866196692,0.188375964761,-0.348803311586,0.0197137352079,0.472726732492,0.999786019325,2.51825594902,3.1019320488,-0.044694647193,0.183811485767,0.168143004179,0.154806881515,-0.901121812362,0.450538652901,-0.00877632835287,-0.0327318118361,0.333213445356,1.01929915581,31.25,32.75,32.0,36.0,38.9375,40.5,7,1,47.8167457581,1.37300491333,47.5992660522,47.7425918579,47.6852607727,47.5705947876,47.5849304199,47.5992660522
090320-16:51:33.828,-1.34461099306,-1.54219134272,-2.01334667206,-1.19116051615,1.56810617447,-1.37201100985,0.468631327152,0.163059324026,0.192673519254,-0.367232292891,0.0189180467278,0.479701548815,1.18849873543,2.72178411484,3.02032089233,0.0667288154364,0.119556084275,0.0888390615582,-0.86536327302,-0.973141893399,1.16205681166,-0.00988024774694,-0.0010953194265,0.33739152986,1.74534660527,31.25,32.75,32.0,36.0,38.9375,40.5,7,1,47.8498802185,1.42224097252,47.5705947876,47.6852607727,47.6565971375,47.5992660522,47.5419311523,47.6135978699
090320-16:51:33.836,-1.34083444277,-1.54092343271,-2.01188182831,-1.19406207026,1.5683465004,-1.36831027666,0.468413174152,0.162201613188,0.196984052658,-0.370793491602,0.0202120598406,0.4659075737,1.07998585701,2.63651943207,2.92746639252,0.0882427841425,0.0677869319916,0.211065798998,-0.119245228589,-0.689285087316,1.03473286722,-0.00267745305197,-0.0401027830003,0.333604871314,1.24900178648,31.25,32.75,32.0,36.0,38.9375,40.5,7,1,47.831073761,1.34838950634,47.5705947876,47.6852607727,47.699596405,47.5705947876,47.5705947876,47.5992660522
090320-16:51:33.844,-1.33699876467,-1.53963215769,-2.01031208038,-1.19704182566,1.56845283508,-1.36466533342,0.472213894129,0.161128625274,0.197908595204,-0.371802389622,0.0179866570979,0.475108683109,0.973062396049,2.57714009285,3.02203440666,0.0469013489783,0.0548554584384,0.118747219443,-0.562130933487,0.916401932889,0.504412339189,0.0827456934485,-0.0222467889311,0.342123329084,1.18752494581,31.25,32.75,32.0,36.0,38.9375,40.5,7,1,47.8212242126,1.33719968796,47.55626297,47.6565971375,47.6709289551,47.4989318848,47.5419311523,47.5705947876
090320-16:51:33.852,-1.33326131502,-1.53841288507,-2.0087518692,-1.19988854349,1.56863212585,-1.36104423205,0.468935072422,0.157275676727,0.198976457119,-0.356001853943,0.0171996504068,0.461736023426,1.14956259727,2.59795308113,3.07801914215,-0.0873419195414,0.026120826602,0.320076435804,0.0820893534267,-0.281037817437,0.22998055392,0.0168939143337,-0.0101090615307,0.344011750743,0.372306287829,31.25,32.75,32.0,36.0,38.9375,40.5,7,1,47.842716217,1.37300491333,47.5992660522,47.7282600403,47.6852607727,47.6135978699,47.5705947876,47.5705947876
090320-16:51:33.860,-1.32949906984,-1.53718312204,-2.0070848465,-1.20274527491,1.56878709793,-1.35718948046,0.470698446035,0.151842266321,0.20428493619,-0.345129370689,0.0166855789721,0.468529045582,0.891214609146,2.74182987213,3.13666510582,-0.192665159702,0.000801166519523,0.200041815639,0.812932370703,-1.10307486499,0.226407452503,-0.00666394162163,-0.0423307593131,0.330324422986,1.38884611519,31.25,32.75,32.0,36.0,38.9375,40.5,7,1,47.8382415771,1.35062527657,47.5705947876,47.6852607727,47.6852607727,47.55626297,47.5849304199,47.5705947876
090320-16:51:33.868,-1.32577401796,-1.53596527994,-2.00544261932,-1.20563395441,1.56888103485,-1.35339528719,0.469744682312,0.149677187204,0.203683003783,-0.35701996088,0.0122836865485,0.461660087109,1.03003287315,2.76643800735,3.19686722755,0.0211608111858,0.0312151536345,0.337913841009,-0.0384452970188,-0.709922055086,0.477823494629,-0.0296712987884,-0.0232164265059,0.351269646154,0.856611147009,31.25,32.75,32.0,36.0,38.9375,40.5,7,1,47.8158493042,1.40433835983,47.55626297,47.6565971375,47.6709289551,47.55626297,47.5275993347,47.55626297
090320-16:51:33.876,-1.32204991976,-1.53475602091,-2.00385570526,-1.20858653009,1.56896543503,-1.34960252443,0.466858893633,0.147773176432,0.208712846041,-0.360844910145,0.0129925273359,0.458347290754,1.15963685513,2.70179343224,2.99276900291,0.108444020152,0.0441784523427,0.342236369848,-1.03915554523,0.0287593250141,0.484285618852,0.0366173252178,0.00892438035576,0.332321217218,1.14682339817,31.25,32.75,32.0,36.0,38.9375,40.5,7,1,47.831073761,1.32600986958,47.5705947876,47.7569236755,47.699596405,47.6709289551,47.5849304199,47.6135978699
090320-16:51:33.884,-1.31831247011,-1.53358347834,-2.00211811066,-1.21144278467,1.56907320023,-1.34576923052,0.466085135937,0.147456020117,0.208867236972,-0.368873268366,0.0134418839589,0.463242441416,1.1730055809,2.55739879608,3.20259094238,0.120012015104,0.0674993991852,0.326647937298,-0.339704730771,-0.415955137208,0.786613219462,-0.00608111770497,-0.0243714401124,0.328163466154,0.952459100072,31.25,32.75,32.0,36.0,38.9375,40.5,7,1,47.8176383972,1.37971770763,47.5705947876,47.7282600403,47.6709289551,47.5705947876,47.5849304199,47.5849304199
090320-16:51:33.892,-1.31457502047,-1.53241427362,-2.00041484833,-1.21434147776,1.56920576096,-1.34203559557,0.466335862875,0.14322295785,0.212017759681,-0.364325493574,0.0135769816115,0.45915594697,1.19038999081,2.61472678185,3.19610738754,0.029127554968,0.0490503981709,0.332803726196,-0.729701803492,0.891443192863,0.823316872298,0.0753193735096,0.011918259168,0.339606349467,1.41597540951,31.25,32.6875,32.0,36.0,38.9375,40.5,7,1,47.8346557617,1.41776394844,47.5419311523,47.7855911255,47.6565971375,47.5849304199,47.5992660522,47.5992660522
090320-16:51:33.900,-1.31082231203,-1.53122933329,-1.99868679047,-1.21714003504,1.56931352615,-1.33837634722,0.468942165375,0.141246452928,0.217491000891,-0.347417086363,0.0135691752657,0.469971090555,0.910824477673,2.51021957397,3.09604096413,-0.164463594556,0.0846564397216,0.275960206985,-0.0723936270209,-0.479349911867,0.675503034494,0.00785114833862,-0.0375680117981,0.343162592643,0.83145747026,31.25,32.6875,32.0,36.0,38.9375,40.5,7,1,47.842716217,1.37524604797,47.5992660522,47.7425918579,47.7569236755,47.5705947876,47.55626297,47.5849304199
090320-16:51:33.908,-1.30700380007,-1.53009398401,-1.99692249298,-1.22001393259,1.56934785843,-1.33464843432,0.466156542301,0.137923747301,0.219152539968,-0.34798309207,0.0125280795619,0.468772441149,1.12700772285,2.44479370117,2.94957876205,-0.0371736511588,0.113451972604,0.226888030767,-0.779586159614,0.271404780944,0.74814184588,0.0457500898037,0.0111495587845,0.328296799466,1.11406075101,31.25,32.6875,32.0,36.0,38.9375,40.5,7,1,47.8543586731,1.40881538391,47.5849304199,47.7139282227,47.7282600403,47.6135978699,47.5992660522,47.5992660522
090320-16:51:33.916,-1.30323201815,-1.52903206766,-1.99516201019,-1.22282345713,1.56954097748,-1.33099300066,0.46316075325,0.133964926004,0.217763900757,-0.346688210964,0.0153515776619,0.47906395793,1.21411693096,2.54197525978,3.20069289207,-0.0448199436069,0.0990634709597,0.135375976562,0.214156822248,0.212158882064,1.30204629133,0.0340798209318,-0.0356535426366,0.327937933866,1.33648759086,31.25,32.6875,32.0,36.0,38.9375,40.5,7,1,47.8418235779,1.41105115414,47.6279296875,47.7425918579,47.699596405,47.6709289551,47.5992660522,47.5992660522
090320-16:51:33.924,-1.29951554934,-1.52794297159,-1.99342250824,-1.22555621088,1.56966161728,-1.32729179064,0.467745184898,0.131455034018,0.220811188221,-0.365225464106,0.0154603812844,0.46880453825,1.00118994713,2.43839001656,3.18603134155,0.107576400042,0.127991914749,0.213052272797,2.06613941836,-1.53112508023,1.52142920277,-0.0298343450235,-0.0800850710367,0.327560064049,2.98797973997,31.25,32.6875,32.0,36.0,38.9375,40.5,7,1,47.8167457581,1.34838950634,47.5849304199,47.6852607727,47.6852607727,47.5849304199,47.5849304199,47.5849304199
090320-16:51:33.932,-1.29585153261,-1.5268920225,-1.99162006378,-1.22850592554,1.56971979141,-1.32355910936,0.463593423367,0.127084717155,0.228626132011,-0.369216829538,0.0131337726489,0.479051828384,1.17586541176,2.5071387291,2.86434078217,0.117828279734,0.173276364803,0.0738664641976,-1.80442179094,1.29484099643,0.947351561668,0.0648127912869,0.0213768586976,0.341734354564,2.41454471631,31.25,32.6875,32.0,36.0,38.9375,40.5,7,1,47.8257026672,1.26334822178,47.5849304199,47.7425918579,47.6852607727,47.5705947876,47.5992660522,47.6422653198
090320-16:51:33.940,-1.29222184816,-1.52591355265,-1.98983478546,-1.23132403315,1.56984186172,-1.31983405748,0.463314294815,0.124547049403,0.226083815098,-0.357394933701,0.01658754237,0.459057092667,1.16232478619,2.48590970039,3.22235393524,-0.0566024966538,0.171654433012,0.253423690796,-0.229218661249,0.594644823113,0.193553723822,0.0532238700431,-0.0250757345865,0.343266815966,0.666038065222,31.25,32.6875,32.0,36.0,38.9375,40.5,7,1,47.8391342163,1.31034314632,47.5275993347,47.7282600403,47.699596405,47.5705947876,47.5849304199,47.5705947876
090320-16:51:33.948,-1.28848535219,-1.52489550531,-1.98801136017,-1.23411162317,1.56993627548,-1.31599170366,0.463327944279,0.123076938093,0.228739336133,-0.345279246569,0.0141230523586,0.466674625874,1.24786472321,2.40941333771,3.14074516296,-0.123575419188,0.217963635921,0.1393417418,-1.67384008393,0.107810039712,0.841875770417,0.0372776044298,0.0262914560927,0.333239226447,1.87673078624,31.25,32.6875,32.0,36.0,38.9375,40.5,7,1,47.8624191284,1.39986133575,47.6135978699,47.7139282227,47.7282600403,47.5992660522,47.5992660522,47.5992660522
090320-16:51:33.956,-1.28479367891,-1.52394087732,-1.98616123199,-1.23694832743,1.57012939453,-1.31231719652,0.465708136559,0.117968641222,0.237315520644,-0.342819362879,0.0174192748964,0.453615635633,1.05637776852,2.48005580902,2.96795701981,-0.104133345187,0.196685373783,0.287424951792,0.469387196486,-0.475031656158,0.909915037743,0.0176373551377,-0.0603339991735,0.343362996271,1.12868276787,31.25,32.6875,32.0,36.0,38.9375,40.5,7,1,47.831073761,1.37300491333,47.5705947876,47.7569236755,47.7282600403,47.5992660522,47.5419311523,47.5992660522
090320-16:51:33.964,-1.28106767336,-1.52301104486,-1.98430538177,-1.23986323298,1.57023572922,-1.30859405199,0.465787440538,0.113279230893,0.235138446093,-0.358332574368,0.0145198917016,0.454654574394,1.08912968636,2.63614940643,3.11477422714,0.11905311048,0.264021724463,0.232388436794,-0.521126790528,0.182202374964,0.472926699283,0.011328332933,-0.0136999780613,0.327310576463,0.726932252788,31.25,32.6875,32.0,36.0,38.9375,40.5,7,1,47.8042068481,1.30586624146,47.5132637024,47.7282600403,47.6709289551,47.5705947876,47.5705947876,47.6135978699
090320-16:51:33.972,-1.27733308474,-1.52213747919,-1.98236179352,-1.24268277109,1.57035541534,-1.30494910875,0.46191650629,0.110862478614,0.235409468412,-0.357737839222,0.0149595811963,0.450181305408,1.288372159,2.59517812729,3.31326055527,0.0981724113226,0.27202039957,0.352660894394,-1.14227252433,-0.689729534615,0.855338214705,-0.00175993008966,0.013311228804,0.338931861342,1.58496587102,31.25,32.6875,32.0,36.0,38.9375,40.5,7,1,47.8382415771,1.35733807087,47.5992660522,47.699596405,47.699596405,47.5705947876,47.5849304199,47.5992660522
090320-16:51:33.980,-1.273543183,-1.52127678812,-1.98048686981,-1.24549992502,1.57052469254,-1.30140000979,0.465092986822,0.109619133174,0.245253607631,-0.359436929226,0.0183171052486,0.451321303844,0.883016347885,2.49110889435,2.88989400864,0.0241637732834,0.260634481907,0.305765092373,0.444035699535,-0.195053670524,0.58086697924,0.0133164854762,-0.0587924886677,0.336825612718,0.756716647377,31.25,32.6875,32.0,36.0,38.9375,40.5,7,1,47.8409233093,1.35286641121,47.5705947876,47.7425918579,47.699596405,47.5705947876,47.55626297,47.6279296875
090320-16:51:33.988,-1.26985341707,-1.52040560663,-1.97852230072,-1.24832899988,1.5706319809,-1.29781896273,0.46500313282,0.106865532696,0.244699716568,-0.349309802055,0.0165532324463,0.456128746271,0.866337239742,2.51920199394,2.97147274017,-0.0458787828684,0.29519712925,0.397829562426,-0.574207423263,0.628214388757,0.368106368571,0.0545648353034,-0.010249318736,0.349863376174,0.927291637918,31.25,32.6875,32.0,36.0,38.9375,40.5,7,1,47.8695869446,1.33943557739,47.5992660522,47.7425918579,47.6852607727,47.5849304199,47.5992660522,47.5705947876
090320-16:51:33.996,-1.26616555849,-1.51956828058,-1.97655773163,-1.25115282953,1.57078742981,-1.29408485094,0.461043775082,0.10392845422,0.241079613566,-0.335015624762,0.0172910038382,0.46047526598,1.11139476299,2.4795999527,3.32483673096,-0.12922540307,0.27795702219,0.310487926006,-0.140975714295,-0.254933842424,0.403789025827,0.0275750839872,-0.0212308403592,0.326289064208,0.497906611136,31.25,32.6875,32.0,36.0,38.9375,40.5,7,1,47.8552589417,1.43343067169,47.6135978699,47.7139282227,47.7139282227,47.5849304199,47.5992660522,47.5992660522
090320-16:51:34.004,-1.26252156893,-1.51875575007,-1.9745759964,-1.25392468393,1.57089614868,-1.29035216967,0.462232470512,0.102212503552,0.246171548963,-0.348526239395,0.0186962131411,0.466214686632,0.926367461681,2.44405961037,3.2049908638,0.0587105229497,0.285889297724,0.272266298532,-0.305058507408,0.127754718941,0.511073548405,0.0179783580158,-0.0554376480455,0.34731224898,0.608751289965,31.25,32.6875,32.0,36.0,38.9375,40.5,7,1,47.8382415771,1.32824575901,47.5705947876,47.7425918579,47.7139282227,47.55626297,47.5849304199,47.5849304199
090320-16:51:34.012,-1.25885469118,-1.5180042547,-1.9725484848,-1.25672705591,1.57107591629,-1.28654987017,0.459332555532,0.0983116775751,0.25121948123,-0.35430559516,0.019121190533,0.46053686738,1.12286829948,2.49091029167,3.02001047134,0.117804050446,0.249917924404,0.288826584816,-0.508047895121,-0.974121337825,0.718011953388,-0.0301679658948,-0.0261833777848,0.351151558627,1.3124656985,31.25,32.6875,32.0,36.0,38.9375,40.5,7,1,47.8095779419,1.33048689365,47.5419311523,47.6852607727,47.6852607727,47.5132637024,47.5705947876,47.55626297
090320-16:51:34.020,-1.2552002112,-1.51720364512,-1.97053432465,-1.25950272501,1.57122087479,-1.2828133742,0.462301135063,0.094247430563,0.252057045698,-0.361336708069,0.0207265820354,0.469776123762,0.991744577885,2.55067825317,3.13426733017,0.10627232492,0.209848225117,0.152326837182,-0.486236441462,0.395551918344,0.356606681242,0.0565573353721,-0.014836046306,0.330224199834,0.721148751796,31.25,32.6875,31.9375,36.0,38.9375,40.5,7,1,47.8346557617,1.34167671204,47.6135978699,47.6709289551,47.7569236755,47.5705947876,47.5849304199,47.5419311523
090320-16:51:34.028,-1.2515352408,-1.51647551477,-1.96847248077,-1.26227457941,1.57141160965,-1.27918750445,0.45862442255,0.0906271487474,0.251839637756,-0.346492499113,0.0197075009346,0.457449167967,1.14576232433,2.62175798416,3.30993795395,-0.0828073695302,0.194999143481,0.226482063532,-0.735107475999,-0.200871945426,0.563317827964,0.00903191582052,-0.0126581250732,0.347468326756,0.947660020804,31.25,32.6875,31.9375,36.0,38.9375,40.5,7,1,47.8534622192,1.3841946125,47.5705947876,47.7425918579,47.699596405,47.5275993347,47.5705947876,47.5849304199
090320-16:51:34.036,-1.24783212343,-1.51575930536,-1.96643161774,-1.26507933558,1.57154417038,-1.27546054522,0.45912116766,0.0893629193306,0.258277148008,-0.336365222931,0.0202455986291,0.469946265221,1.10132694244,2.49929690361,3.063144207,-0.178271353245,0.148403465748,0.12932921946,-0.781611073318,0.290181673617,0.457474855563,0.0342147375516,-0.0160475750334,0.334753372537,0.951001849161,31.25,32.6875,31.9375,36.0,38.9375,40.5,7,1,47.8436126709,1.43119490147,47.5849304199,47.699596405,47.6852607727,47.5992660522,47.6422653198,47.5705947876
090320-16:51:34.044,-1.24414140383,-1.51504023493,-1.96431064606,-1.26787836969,1.57173538208,-1.27189428011,0.459820598364,0.0890029296279,0.25669580698,-0.345335364342,0.019557505846,0.459227383137,0.980259299278,2.32308316231,3.28448963165,0.0340067893267,0.132717639208,0.175791531801,0.377356486923,-0.196853625679,0.896998285054,0.00944908845557,-0.0326509686591,0.326524096982,0.992852049178,31.25,32.6875,31.9375,36.0,38.9375,40.5,7,1,47.8355522156,1.35957920551,47.5705947876,47.7569236755,47.6709289551,47.5992660522,47.5849304199,47.5705947876
090320-16:51:34.052,-1.24047643343,-1.5143597883,-1.96228122711,-1.27061064661,1.57188987732,-1.26834422747,0.455706685781,0.0851479917765,0.260589420795,-0.348706573248,0.0180270969868,0.466694205999,1.17078840733,2.36974239349,3.22522878647,0.0757603645325,0.0728764086962,0.0872234404087,-0.151636079768,-0.695072187476,1.124908611,-0.00667540369877,-0.0195625596881,0.332129108032,1.3309914461,31.25,32.6875,31.9375,36.0,38.9375,40.5,7,1,47.8230133057,1.35062527657,47.5705947876,47.6852607727,47.7569236755,47.5849304199,47.5849304199,47.5849304199
090320-16:51:34.060,-1.23679715792,-1.51372797907,-1.96015644073,-1.27342827738,1.57205820084,-1.26470357576,0.458605051041,0.082488425076,0.26879876852,-0.359706193209,0.0193094406277,0.455501675606,0.933182239532,2.32065105438,2.88830900192,0.110008195043,0.00895465258509,0.22012335062,1.04623716147,0.16035164015,0.686116568184,0.0403219089721,-0.0916841370864,0.333363944145,1.26138051027,31.25,32.6875,31.9375,36.0,38.9375,40.5,7,1,47.8328666687,1.32824575901,47.6135978699,47.7425918579,47.699596405,47.6135978699,47.5992660522,47.6135978699
090320-16:51:34.067,-1.23320275942,-1.51305897654,-1.95805835724,-1.2762773794,1.57216310501,-1.26105481783,0.457588344812,0.0789923891425,0.264364928007,-0.349355489016,0.0129721071571,0.463911235332,1.09735512733,2.2950668335,3.28067016602,0.0148766515777,0.0835284739733,0.0963295698166,-1.89785638328,1.7797780714,0.535058920644,0.0794006659946,0.0300756242776,0.336889562073,2.65626747214,31.25,32.6875,31.9375,36.0,38.9375,40.5,7,1,47.8525695801,1.34167671204,47.5992660522,47.7569236755,47.7139282227,47.5849304199,47.55626297,47.5849304199
090320-16:51:34.076,-1.22956163088,-1.51245053232,-1.95593357086,-1.27901823938,1.57225990295,-1.25736171404,0.455343335867,0.0752229988575,0.269746154547,-0.330714046955,0.014903430827,0.445856839418,1.15992498398,2.37752628326,3.21140241623,-0.151291251183,0.0278789177537,0.303025513887,-0.546809525671,-0.441223473198,0.438229980436,-0.00866679282704,-0.0248783208879,0.342483099546,0.82808473384,31.25,32.6875,31.9375,36.0,38.9375,40.5,7,1,47.8382415771,1.51624143124,47.5419311523,47.6852607727,47.6852607727,47.5705947876,47.55626297,47.6279296875
090320-16:51:34.083,-1.22591287294,-1.51185496271,-1.95380687714,-1.28180630625,1.57241487503,-1.25361568133,0.454679846764,0.070820659399,0.274809420109,-0.342133104801,0.0143627515063,0.45361289382,1.11257600784,2.45450019836,2.98491621017,0.0399899445474,0.0602726489305,0.166653677821,-0.775494870737,0.510993628181,0.430618557167,0.0403414915471,-0.0197664825607,0.336412642301,1.02368897833,31.25,32.6875,31.9375,36.0,38.9375,40.5,7,1,47.831073761,1.30363035202,47.6565971375,47.6852607727,47.6852607727,47.5992660522,47.5849304199,47.5849304199
090320-16:51:34.092,-1.22228223482,-1.51130564631,-1.95161151886,-1.2845261854,1.5724864006,-1.2500723044,0.455088347197,0.0675713270903,0.274025827646,-0.344187527895,0.0138157038018,0.443197578192,1.09083604813,2.50309634209,3.28631591797,0.064677208662,0.0548627525568,0.311418265104,0.015448216026,-0.735749273074,0.52294861887,0.00657350608106,-0.0331745093908,0.33116945157,0.902796155389,31.25,32.6875,31.9375,36.0,38.9375,40.5,7,1,47.8355522156,1.33495855331,47.5705947876,47.7139282227,47.6709289551,47.4989318848,47.5419311523,47.6422653198
090320-16:51:34.100,-1.21861535708,-1.51079256952,-1.94942569733,-1.28729708612,1.57258176804,-1.24642879168,0.455777913332,0.0642147660255,0.280720293522,-0.356411993504,0.0134697053581,0.444264173508,1.0310561657,2.53772163391,2.96489810944,0.0943803787231,0.0718857049942,0.246264442801,-0.0329665752472,-0.4176916348,0.714766469927,0.00429113944922,-0.039097106408,0.33947328736,0.828519283661,31.25,32.6875,31.9375,36.0,38.9375,40.5,7,1,47.8489837646,1.27006101608,47.6135978699,47.7425918579,47.7569236755,47.55626297,47.5992660522,47.6135978699
090320-16:51:34.108,-1.21497518221,-1.51025565088,-1.94721698761,-1.29008610666,1.57265329361,-1.24289256731,0.44935593009,0.0626946985722,0.282504916191,-0.344136089087,0.0118074677885,0.440708726645,1.29118347168,2.43124580383,3.0753159523,-0.0317313671112,0.138304263353,0.35150423646,-1.75138462545,1.04791435651,0.394406851831,0.0800191266732,0.0305500229257,0.33192544827,2.07870858218,31.25,32.6875,31.9375,36.0,38.9375,40.5,7,1,47.8785400391,1.38195884228,47.5419311523,47.7425918579,47.6852607727,47.5992660522,47.5992660522,47.5992660522
090320-16:51:34.116,-1.21132451693,-1.50975354136,-1.94499874115,-1.29274733484,1.57279825211,-1.23936683336,0.453692793846,0.059596337378,0.281159341335,-0.32596796751,0.0146152758971,0.442642509937,0.905838131905,2.39818739891,3.34893274307,-0.206965535879,0.102552786469,0.271008998156,0.326023391101,-0.0372171837876,0.289706523222,0.029268525269,-0.0547492791147,0.347400694936,0.437728500228,31.25,32.6875,31.9375,36.0,38.9375,40.5,7,1,47.8588371277,1.3461483717,47.5705947876,47.699596405,47.7139282227,47.55626297,47.55626297,47.5992660522
090320-16:51:34.124,-1.20767671267,-1.50931294382,-1.94265842438,-1.29550393045,1.57291650772,-1.23584443728,0.453531384468,0.0555856525898,0.284354954958,-0.339915335178,0.0126754119992,0.442309230566,0.952534675598,2.49223780632,3.16794013977,0.0162619072944,0.16412808001,0.358333289623,0.164951529816,-0.73366722078,0.184315869485,-0.0409793811826,-0.021691143241,0.346342291693,0.774240878396,31.25,32.6875,31.9375,36.0,38.9375,40.5,7,1,47.8382415771,1.34838950634,47.5705947876,47.7282600403,47.6709289551,47.55626297,47.5849304199,47.55626297
090320-16:51:34.132,-1.20407945315,-1.50894339502,-1.94030666351,-1.29819662989,1.57301282883,-1.23217279116,0.448757827282,0.0534993037581,0.288056790829,-0.348246008158,0.0134593816474,0.445955306292,1.06067490578,2.43378329277,3.23272800446,0.0880825594068,0.165014117956,0.278682470322,-0.297490498527,-0.626031865799,0.152409763669,-0.0238537004939,-0.017412020129,0.361266783919,0.709679667013,31.25,32.6875,31.9375,36.0,38.9375,40.5,7,1,47.8077888489,1.30586624146,47.5705947876,47.6565971375,47.6709289551,47.5419311523,47.5419311523,47.5849304199
090320-16:51:34.140,-1.20050317446,-1.50846512735,-1.93800258636,-1.3009198469,1.57313346863,-1.2284672896,0.450965344906,0.0516907423735,0.284880638123,-0.354951620102,0.0145671395585,0.444900274277,0.93529689312,2.44695448875,3.34670782089,0.0984025597572,0.203065186739,0.341097593307,0.0241003828483,0.378063003282,0.224219265216,0.0310686939108,-0.0431169492828,0.338986960308,0.440212155441,31.25,32.6875,31.9375,36.0,38.9375,40.5,7,1,47.8660011292,1.35957920551,47.5992660522,47.7712593079,47.7282600403,47.5705947876,47.5849304199,47.6135978699
090320-16:51:34.148,-1.19699365297,-1.50810749949,-1.93561267853,-1.30362685144,1.57321739197,-1.22484046618,0.447578340769,0.0491085536778,0.291787087917,-0.33788266778,0.0148125234991,0.438865572214,1.13375234604,2.38015842438,3.13091516495,-0.0715552419424,0.218014404178,0.337997406721,-1.27683110395,1.27994372263,0.370871053523,0.0716449810316,-0.0102041421503,0.33542128966,1.84556195763,31.25,32.6875,31.9375,36.0,38.9375,40.5,7,1,47.8498802185,1.31705594063,47.5705947876,47.6852607727,47.7139282227,47.55626297,47.5705947876,47.5849304199
090320-16:51:34.156,-1.19342309633,-1.50767834604,-1.93322658539,-1.30633099497,1.57333803177,-1.22116643587,0.449724107981,0.0466370545328,0.292629688978,-0.325889497995,0.0163217894733,0.446155279875,1.03691601753,2.30411410332,3.19509649277,-0.181172519922,0.220999419689,0.292762994766,-0.431484021276,0.113839301354,0.175167309148,0.0165140218327,-0.0172818635687,0.339618141723,0.479396947574,31.25,32.6875,31.9375,36.0,38.9375,40.5,7,1,47.8364448547,1.45357441902,47.5705947876,47.6852607727,47.699596405,47.5705947876,47.5705947876,47.5849304199
090320-16:51:34.164,-1.18990117708,-1.50729639948,-1.93085002899,-1.30903418482,1.57340860367,-1.21765739122,0.447084099054,0.0436521396041,0.294512063265,-0.342239528894,0.0146374097094,0.438042223454,1.06522548199,2.31029176712,3.25832819939,0.0671621263027,0.25953745842,0.311743855476,-0.337090516294,-0.834431387612,0.662372816482,-0.051726765826,-0.0145277094638,0.348011515233,1.11742718099,31.25,32.6875,31.9375,36.0,38.9375,40.5,7,1,47.8301773071,1.34391248226,47.5419311523,47.7425918579,47.6852607727,47.55626297,47.5849304199,47.5705947876
090320-16:51:34.172,-1.18629533449,-1.5069745344,-1.92850780487,-1.31185944498,1.57361268997,-1.21414214769,0.44852912426,0.0408318154514,0.301805615425,-0.347858309746,0.0156981330365,0.445749402046,0.969446897507,2.27976608276,2.9123852253,0.138307645917,0.282859444618,0.285719841719,-0.812307996483,0.0756391398885,0.49491510391,0.0263222268977,-0.0395383053977,0.327183606762,0.954204653474,31.25,32.6875,31.9375,36.0,38.9375,40.5,7,1,47.8086853027,1.30138921738,47.5705947876,47.7425918579,47.6709289551,47.5705947876,47.5849304199,47.5705947876
090320-16:51:34.180,-1.18272573153,-1.50671370447,-1.9260969162,-1.31450016916,1.57370853424,-1.21059972445,0.447405159473,0.0375046767294,0.297946214676,-0.347475647926,0.0149148311466,0.443620890379,1.0683631897,2.39046311378,3.29319143295,0.0498527362943,0.30758908391,0.272247642279,-0.71142519785,0.254074081877,0.502594839291,0.0270776249791,-0.00804483744783,0.345051200719,0.907348347493,31.25,32.6875,31.9375,36.0,38.9375,40.5,7,1,47.842716217,1.36405622959,47.6135978699,47.7569236755,47.7569236755,47.6279296875,47.5705947876,47.6422653198
090320-16:51:34.188,-1.17908460299,-1.5063803953,-1.92369365692,-1.31724818171,1.57384061813,-1.20712691942,0.443720519543,0.0333882495761,0.307613193989,-0.332827061415,0.0161503832787,0.450939297676,1.11627554893,2.40625047684,2.92128896713,-0.113705307245,0.300254195929,0.23983117938,-1.01325960712,0.530979507607,0.507951558513,0.0508504878,0.0183257536529,0.339477382303,1.25165852161,31.25,32.6875,31.9375,36.0,38.9375,40.5,7,1,47.8230133057,1.265583992,47.5419311523,47.7425918579,47.6709289551,47.5132637024,47.5849304199,47.5849304199
090320-16:51:34.196,-1.17550164858,-1.50617869318,-1.92131900787,-1.31993420542,1.57403278351,-1.20367557207,0.446983784437,0.0287538338453,0.304883360863,-0.325259357691,0.0179245788604,0.444969087839,0.898022711277,2.47070264816,3.30577087402,-0.0730370432138,0.290344744921,0.271145522594,1.25789007677,-0.477305664977,0.205659541476,0.00872350841006,-0.070350356206,0.343148914014,1.36103048829,31.25,32.6875,31.9375,36.0,38.9375,40.5,7,1,47.8731689453,1.3841946125,47.5849304199,47.7425918579,47.7139282227,47.5705947876,47.5705947876,47.5992660522
090320-16:51:34.204,-1.17195779482,-1.50589306772,-1.91890621185,-1.32264216364,1.5741147995,-1.20005399386,0.442258864641,0.0266404580325,0.308145493269,-0.343180149794,0.0145777277648,0.456277668476,1.16987323761,2.51048445702,3.20257592201,0.118276707828,0.324438124895,0.17259517312,-1.02984359375,-0.463422594122,0.590430191287,-0.00281537670973,0.00615615509466,0.323419959327,1.27434145311,31.25,32.6875,31.9375,36.0,38.9375,40.5,7,1,47.8319702148,1.30138921738,47.5992660522,47.6852607727,47.6852607727,47.5132637024,47.5705947876,47.5705947876
090320-16:51:34.212,-1.16844636599,-1.50573857248,-1.9164686203,-1.325387792,1.57432126999,-1.19655687014,0.442678272724,0.0238052587956,0.312017768621,-0.34582388401,0.0192163586617,0.444827705622,1.03778147697,2.48800206184,3.14845848083,0.124573513865,0.292741119862,0.253081202507,-0.0591803986494,1.00388766301,0.33424740983,0.0462650881584,-0.041737595033,0.33645803726,1.05972359156,31.25,32.6875,31.9375,36.0,38.9375,40.5,7,1,47.8185348511,1.31257903576,47.5419311523,47.7425918579,47.6709289551,47.55626297,47.5419311523,47.5705947876
090320-16:51:34.220,-1.16487771669,-1.50558455408,-1.9139623642,-1.32806952417,1.57439184189,-1.19296437899,0.440488189459,0.0207539405674,0.311083078384,-0.339154094458,0.0176357086748,0.453944891691,1.17619109154,2.47044730186,3.3874502182,-0.0297407507896,0.281925171614,0.132729962468,-1.33703849558,1.12849811536,-0.0433391505273,0.049454923966,0.00419804698939,0.34370496931,1.75015948331,31.25,32.6875,31.9375,36.0,38.9375,40.5,7,1,47.8373451233,1.31257903576,47.6279296875,47.7282600403,47.6852607727,47.5849304199,47.5849304199,47.5705947876
090320-16:51:34.228,-1.16135484377,-1.50540669382,-1.91145420074,-1.33071883143,1.57452440262,-1.18936568895,0.443424791098,0.0184874366969,0.314689099789,-0.32551574707,0.019226770848,0.44500207901,0.963564276695,2.45888829231,3.30589580536,-0.103554144502,0.261119991541,0.160976052284,-0.733333145337,0.281885954741,-0.18127194654,0.031048215312,-0.00532397866028,0.344517345751,0.806285750917,31.25,32.6875,31.9375,36.0,38.9375,40.5,7,1,47.8319702148,1.33719968796,47.5419311523,47.7139282227,47.699596405,47.5849304199,47.5849304199,47.5705947876
090320-16:51:34.236,-1.15783483187,-1.50528796137,-1.90888500214,-1.3334377569,1.57475185394,-1.18582183519,0.439576715231,0.0156053099781,0.318126112223,-0.324430555105,0.0188208594918,0.449981033802,1.22136700153,2.50132513046,3.30563950539,-0.052044454962,0.22335472703,0.104876115918,-0.298572133784,-0.2523572283,-0.0297393486678,-0.00351415304522,-0.0272815926533,0.33935678236,0.392063666522,31.25,32.6875,31.9375,36.0,38.9375,40.5,7,1,47.8624191284,1.37971770763,47.5992660522,47.7425918579,47.7569236755,47.6135978699,47.6279296875,47.6279296875
090320-16:51:34.244,-1.15432435671,-1.50513346613,-1.9062833786,-1.33609183252,1.574883461,-1.18232423464,0.438194870949,0.0138926403597,0.316941142082,-0.346140861511,0.0190968364477,0.439551651478,1.00803971291,2.43898582458,3.50017261505,0.130571007729,0.188419103622,0.177197322249,-0.55160465451,-0.650003641409,0.339394129067,-0.0181528366467,-0.0149098165678,0.334964472208,0.917584221512,31.25,32.6875,31.9375,36.0,38.9375,40.5,7,1,47.8006248474,1.30363035202,47.5705947876,47.7569236755,47.6565971375,47.5705947876,47.5419311523,47.55626297
090320-16:51:34.252,-1.15075761477,-1.50507481516,-1.90367603302,-1.33881648005,1.57502698898,-1.17888480822,0.439452379942,0.0114792902023,0.325868487358,-0.344650417566,0.019129415974,0.448906332254,0.994589328766,2.37887978554,3.0478053093,0.0681789591908,0.161786496639,0.117518305779,-0.340268212995,0.884190448271,0.196500589094,0.0646947298378,-0.0292809826993,0.3381637814,0.967567923767,31.25,32.6875,31.9375,36.0,38.9375,40.5,7,1,47.8364448547,1.26334822178,47.6279296875,47.7139282227,47.6852607727,47.55626297,47.5992660522,47.5705947876
090320-16:51:34.260,-1.1472290198,-1.50496895731,-1.90107440948,-1.34146817148,1.57517051697,-1.17554217974,0.433568298817,0.00796481687576,0.322642803192,-0.3244766891,0.0178304184228,0.437263607979,1.29518973827,2.36452746391,3.4647321701,-0.144821614027,0.139539718628,0.222945421934,-0.762407062378,0.20795280796,0.564582396098,0.0329671196044,-0.00383503816522,0.335802577458,0.971216855849,31.25,32.6875,31.9375,36.0,38.9375,40.5,7,1,47.8463020325,1.33495855331,47.5705947876,47.6852607727,47.7569236755,47.5705947876,47.5132637024,47.5849304199
090320-16:51:34.268,-1.14377290407,-1.5049713415,-1.8984670639,-1.34413607538,1.57536268234,-1.17211515108,0.437843054533,0.00284299929626,0.33132776618,-0.324347853661,0.0193862747401,0.45187997818,0.894470095634,2.34825229645,3.12438964844,-0.0584088228643,0.0647535175085,0.131229519844,0.9381299971,0.300204295896,0.666380894239,0.00715124287533,-0.0988998105404,0.358620884451,1.18923252854,31.25,32.6875,31.9375,36.0,38.9375,40.5,7,1,47.8463020325,1.27229690552,47.5705947876,47.7139282227,47.7139282227,47.55626297,47.5849304199,47.6279296875
090320-16:51:34.276,-1.14034539858,-1.50493653238,-1.8958158493,-1.34679491938,1.57540798187,-1.1686018149,0.434943437576,0.00048964243615,0.327070474625,-0.334950387478,0.0142701212317,0.44215041399,1.08204245567,2.15340590477,3.4182100296,0.0893741622567,0.0684001371264,0.185972630978,-0.888773655087,-0.726659234357,0.343081522708,0.00138394363104,-0.00801169670492,0.318002614766,1.19818912701,31.25,32.6875,31.9375,36.0,38.9375,40.5,7,1,47.8597335815,1.34167671204,47.5992660522,47.7139282227,47.7282600403,47.5275993347,47.5705947876,47.5705947876
090320-16:51:34.284,-1.13691598574,-1.50494940699,-1.89323139191,-1.34939177454,1.5755648613,-1.1650689284,0.43506154418,-0.0016352130333,0.334156513214,-0.345038950443,0.0170874055475,0.449217230082,1.0294380188,1.96455669403,3.22591090202,0.102602854371,0.0288985837251,0.0830169543624,-0.372850373431,0.169597868948,0.501523085699,-0.0138075836011,-0.0462402676019,0.350637712574,0.647538603952,31.25,32.6875,31.9375,36.0,38.9375,40.5,7,1,47.8301773071,1.35062527657,47.5705947876,47.7139282227,47.6852607727,47.5419311523,47.5132637024,47.5849304199
090320-16:51:34.292,-1.13342744509,-1.50498755396,-1.89057826996,-1.35206635416,1.57570791245,-1.16156131426,0.432672023773,-0.00640682224184,0.33402210474,-0.332231640816,0.0143643515185,0.435779541731,1.15683627129,1.87752437592,3.25813055038,-0.0424575060606,0.0342038013041,0.182354420424,-1.05223054887,1.31980737789,0.106302338902,0.074455483346,-0.00564506313685,0.345889595279,1.69126604352,31.25,32.6875,31.9375,36.0,38.9375,40.5,7,1,47.8248062134,1.34391248226,47.5705947876,47.7425918579,47.6565971375,47.4989318848,47.5849304199,47.5992660522
090320-16:51:34.300,-1.1299961249,-1.50507243097,-1.88791370392,-1.35460217417,1.57576704025,-1.15797788302,0.434449493885,-0.00824364740402,0.337220549583,-0.313412129879,0.0134096331894,0.445167779922,0.924503207207,1.73073339462,3.29434728622,-0.181756854057,0.0278123058379,0.0589502863586,-0.436046191125,-0.298307425317,0.164655828903,-0.03096560006,-0.0338154751114,0.34793174686,0.553385166756,31.25,32.6875,31.9375,36.0,38.9375,40.5,7,1,47.8597335815,1.37524604797,47.5992660522,47.699596405,47.7139282227,47.5992660522,47.5705947876,47.5992660522
090320-16:51:34.308,-1.12650758425,-1.50516970575,-1.88521099091,-1.35732300699,1.57586240768,-1.15458947817,0.430819898844,-0.0118506280705,0.341646403074,-0.335226297379,0.0130457924679,0.429178833961,1.07862484455,1.6248550415,3.16614103317,0.087280601263,0.0512881949544,0.211423233151,-0.299314159565,-0.355567136668,0.211593625172,0.00872295512282,-0.0317476981508,0.331610542784,0.510674864281,31.25,32.6875,31.9375,36.0,38.9375,40.5,7,1,47.8480911255,1.27006101608,47.5992660522,47.7425918579,47.7282600403,47.55626297,47.5849304199,47.5992660522
090320-16:51:34.316,-1.12300569216,-1.50527890146,-1.88248538971,-1.36003191889,1.57598161697,-1.15117866198,0.430138349533,-0.0149165950716,0.341167628765,-0.341683804989,0.0121765537187,0.440948337317,1.07841134071,1.63436865807,3.35362648964,0.151544332504,0.0459964387119,0.105027571321,-1.4232293577,0.157367922896,0.0550885347945,0.0276219788318,-0.00351556367432,0.328589552582,1.43296239115,31.25,32.6875,31.9375,36.0,38.9375,40.5,7,1,47.8633155823,1.35957920551,47.6279296875,47.7425918579,47.7282600403,47.5992660522,47.5992660522,47.5992660522
090320-16:51:34.324,-1.1195824782,-1.50543530405,-1.8797121048,-1.36261113108,1.5761141777,-1.14777881304,0.431465387344,-0.0163926295936,0.343951076269,-0.334742069244,0.0142449364066,0.432034015656,0.99497461319,1.55463194847,3.33957099915,-0.0118029341102,0.0631358623505,0.165453314781,0.119942913092,0.645655758456,0.0786629785953,0.0584504097935,-0.0377280157084,0.333508759176,0.661396647277,31.25,32.6875,31.9375,36.0,38.9375,40.5,7,1,47.8239135742,1.3148201704,47.5992660522,47.6852607727,47.6852607727,47.5705947876,47.5705947876,47.5132637024
090320-16:51:34.332,-1.11619121233,-1.5055077833,-1.87690258026,-1.36526377619,1.57617235184,-1.14446765581,0.425782650709,-0.0175393428653,0.345622867346,-0.31807950139,0.0111123332754,0.440811306238,1.2320561409,1.47266316414,3.30488538742,-0.111349567771,0.0891826227307,0.121479660273,-1.34562816881,0.125997471275,0.407651032132,0.0343046140923,0.0275990668665,0.338832193641,1.41165501999,31.25,32.6875,31.9375,36.0,38.9375,40.5,7,1,47.8454017639,1.39090740681,47.5705947876,47.7425918579,47.7282600403,47.5419311523,47.5849304199,47.5992660522
090320-16:51:34.340,-1.11273509661,-1.50568850458,-1.87410449982,-1.36788399637,1.57634210587,-1.1411207358,0.429808139801,-0.0201292317361,0.34837859869,-0.317609280348,0.0151249393821,0.431843101978,0.860288619995,1.50464344025,3.27260541916,-0.0744561702013,0.0636854767799,0.203611001372,2.05916990083,-1.29863672234,0.698146817595,-0.0345279965064,-0.0964118360533,0.344233073331,2.53259688778,31.25,32.6875,31.9375,36.0,38.9375,40.5,7,1,47.8391342163,1.29467642307,47.6565971375,47.7425918579,47.6852607727,47.6279296875,47.5419311523,47.5992660522
090320-16:51:34.348,-1.10934240023,-1.5058325094,-1.87129497528,-1.37057526529,1.57636404037,-1.13766175905,0.426424413919,-0.02104225941,0.350573450327,-0.344301819801,0.0111456196755,0.442582011223,1.0703098774,1.43156242371,3.25522375107,0.185294851661,0.128605425358,0.0911534205079,-1.38834927764,0.417183439821,0.258412943976,0.00489986071589,0.0216683905484,0.341505890335,1.47252605709,31.25,32.6875,31.9375,36.0,38.9375,40.5,7,1,47.8337631226,1.33495855331,47.5132637024,47.7425918579,47.6852607727,47.5132637024,47.55626297,47.5992660522
090320-16:51:34.356,-1.10596114794,-1.5059531492,-1.86853504181,-1.3731611532,1.5765337944,-1.13424331347,0.426099985838,-0.0231138840318,0.350762784481,-0.332576334476,0.0150274625048,0.427777349949,1.0217859745,1.34962821007,3.44916677475,0.0452152267098,0.113081201911,0.218610316515,-0.157502977291,0.10568108571,0.468693293635,0.00644952741726,-0.038411037754,0.343645092228,0.505617526625,31.25,32.6875,31.9375,36.0,38.9375,40.5,7,1,47.8463020325,1.33719968796,47.5275993347,47.7139282227,47.7569236755,47.5419311523,47.5705947876,47.5992660522
090320-16:51:34.364,-1.10259229342,-1.50621779383,-1.86567401886,-1.37583334864,1.57662916183,-1.13087255159,0.424233049154,-0.0250725243241,0.357664138079,-0.315387278795,0.0140557503328,0.437809944153,1.09969055653,1.40013122559,3.14760684967,-0.145078927279,0.134937271476,0.135939344764,-1.23051916563,1.78195567435,0.283197357493,0.0775615072835,0.00470859897688,0.34128529953,2.18397440131,31.25,32.6875,31.9375,36.0,38.9375,40.5,7,1,47.8086853027,1.33719968796,47.5849304199,47.699596405,47.7139282227,47.6135978699,47.5132637024,47.5849304199
090320-16:51:34.372,-1.09919768969,-1.50643380106,-1.86286640167,-1.3783558172,1.57673692703,-1.12729388872,0.4260455966,-0.0278508923948,0.357001006603,-0.319417268038,0.0137934200466,0.426673203707,0.923447549343,1.35592675209,3.38208341599,-0.0421757772565,0.163313478231,0.184349730611,0.391431669697,-1.55351921879,0.554587071407,-0.0551114513652,-0.0324131405264,0.338797203015,1.69534879449,31.25,32.6875,31.9375,36.0,38.9375,40.5,7,1,47.8355522156,1.35286641121,47.6135978699,47.6709289551,47.699596405,47.55626297,47.5849304199,47.5705947876
090320-16:51:34.380,-1.09580547014,-1.5066626829,-1.86004161835,-1.38105042398,1.57683229446,-1.12400943438,0.422909110785,-0.0299755800515,0.362790614367,-0.335735440254,0.0142201948911,0.430569678545,1.06488513947,1.2637693882,3.15785360336,0.142394199967,0.160451456904,0.167761862278,-0.624487547756,0.47838165082,0.054973395557,0.0336302623354,-0.0123768088041,0.341249879398,0.788578325445,31.25,32.6875,31.9375,36.0,38.9375,40.5,7,1,47.8364448547,1.29691755772,47.5992660522,47.7855911255,47.699596405,47.5992660522,47.5705947876,47.5849304199
090320-16:51:34.388,-1.09236413637,-1.50693924845,-1.85713863373,-1.38364775599,1.57695245743,-1.12067443529,0.421283394098,-0.0323762409389,0.360806912184,-0.333469569683,0.0138612855226,0.419859170914,0.944458782673,1.24642109871,3.39028310776,0.0371416732669,0.176461026073,0.259615004063,-0.922345762951,-0.105583393783,0.363481714946,0.0439160412363,-0.00110827803224,0.333536973371,0.996989727418,31.25,32.6875,31.9375,36.0,38.9375,40.5,7,1,47.8400306702,1.34167671204,47.6279296875,47.6852607727,47.6565971375,47.6135978699,47.5849304199,47.5849304199
